;FLAVOR:Marlin
;TIME:17647
;Filament used: 20.1591m
;Layer height: 0.2
;MINX:36.822
;MINY:42.414
;MINZ:0.2
;MAXX:189.788
;MAXY:163.17
;MAXZ:29.92
;TARGET_MACHINE.NAME:Flying Bear Ghost 5
;LINEARADVANCEPROCESSED
;Generated with Cura_SteamEngine 5.10.0
M140 S110
M105
M190 S110
M104 S240
M105
M109 S240
M220 S100 ;reset feedrate
M221 S100 ;reset flowrate
G90 ;use absolute coordinates
M82 ;absolute extrusion mode
G28 ;home
G1 Z2 F1500 ;raise z
G92 E0 ;reset extruder

G1 X75 Y5 F5000 ;start position
G1 Z0.28 F1500 ;lower z
G1 E4 F500 ;prime the filament
G1 X180 E10 F500 ;1st line
G1 Y5.4 F5000
G1 X75 E20 F500 ;2nd line
G1 Z2 F1500 ;raise z
G92 E0 ;reset extruder
M82 ;absolute extrusion mode
G92 E0
G92 E0
G1 F1500 E-6.5
;LAYER_COUNT:138
M900 K0.083000 T0 ;added by LinearAdvanceSettingPlugin
;LAYER:0
M107
G0 F9000 X39.379 Y45.326 Z0.2
;TYPE:SKIRT
G1 F1500 E0
G1 F1800 X40.958 Y44.238 E0.07972
G1 X41.818 Y43.779 E0.12025
G1 X43.751 Y43.27 E0.20336
G1 X111.36 Y43.306 E3.01421
G1 X112.011 Y43.39 E3.0415
G1 X112.885 Y42.922 E3.08272
G1 X114.817 Y42.414 E3.16577
G1 X182.488 Y42.454 E5.97921
G1 X183.946 Y42.646 E6.04035
G1 X185.233 Y43.194 E6.0985
G1 X186.422 Y43.855 E6.15506
G1 X187.728 Y44.961 E6.22621
G1 X188.856 Y46.609 E6.30924
G1 X189.282 Y47.411 E6.347
G1 X189.788 Y49.343 E6.43003
G1 X189.728 Y155.277 E10.83425
G1 X189.536 Y156.38 E10.8808
G1 X189.251 Y157.364 E10.92339
G1 X188.348 Y158.941 E10.99894
G1 X187.245 Y160.251 E11.07014
G1 X185.642 Y161.352 E11.15099
G1 X184.791 Y161.808 E11.19113
G1 X182.856 Y162.314 E11.27428
G1 X114.982 Y162.248 E14.09616
G1 X114.6 Y162.196 E14.11219
G1 X114.006 Y162.59 E14.14182
G1 X111.791 Y163.17 E14.23701
G1 X43.893 Y163.116 E17.05989
G1 X42.749 Y162.917 E17.10816
G1 X41.777 Y162.637 E17.15022
G1 X40.194 Y161.732 E17.22603
G1 X38.878 Y160.613 E17.29784
G1 X37.79 Y159.034 E17.37757
G1 X37.331 Y158.174 E17.4181
G1 X36.822 Y156.241 E17.5012
G1 X36.876 Y50.341 E21.90401
G1 X37.075 Y49.197 E21.95229
G1 X37.355 Y48.225 E21.99434
G1 X38.26 Y46.642 E22.07015
G1 X39.379 Y45.326 E22.14197
G0 F9000 X39.719 Y45.699
G1 F1800 X41.194 Y44.679 E22.21653
G1 X42.001 Y44.248 E22.25456
G1 X43.817 Y43.77 E22.33264
G1 X111.36 Y43.806 E25.14075
G1 X112.129 Y43.91 E25.17301
G1 X112.265 Y43.82 E25.17979
G1 X113.068 Y43.391 E25.21764
G1 X114.883 Y42.914 E25.29566
G1 X182.423 Y42.95 E28.10365
G1 X183.815 Y43.133 E28.16202
G1 X184.99 Y43.631 E28.21508
G1 X186.135 Y44.268 E28.26955
G1 X187.354 Y45.3 E28.33595
G1 X188.414 Y46.844 E28.41382
G1 X188.813 Y47.595 E28.44917
G1 X189.288 Y49.409 E28.52713
G1 X189.228 Y155.231 E32.9267
G1 X189.043 Y156.294 E32.97156
G1 X188.788 Y157.166 E33.00933
G1 X187.936 Y158.653 E33.08058
G1 X186.905 Y159.878 E33.14715
G1 X185.359 Y160.94 E33.22513
G1 X184.609 Y161.339 E33.26045
G1 X182.791 Y161.814 E33.33857
G1 X114.982 Y161.748 E36.15774
G1 X114.482 Y161.673 E36.17876
G1 X113.798 Y162.127 E36.21289
G1 X111.725 Y162.67 E36.30199
G1 X43.939 Y162.616 E39.1202
G1 X42.835 Y162.424 E39.16679
G1 X41.973 Y162.174 E39.20411
G1 X40.484 Y161.322 E39.27543
G1 X39.251 Y160.273 E39.34273
G1 X38.231 Y158.798 E39.41729
G1 X37.8 Y157.991 E39.45533
G1 X37.322 Y156.175 E39.5334
G1 X37.376 Y50.387 E43.93155
G1 X37.568 Y49.283 E43.97814
G1 X37.818 Y48.421 E44.01546
G1 X38.67 Y46.932 E44.08678
G1 X39.719 Y45.699 E44.15408
G0 F9000 X40.057 Y46.073
G1 F1800 X41.43 Y45.12 E44.22357
G1 X42.184 Y44.717 E44.25911
G1 X43.883 Y44.27 E44.33215
G1 X111.293 Y44.302 E47.13474
G1 X112.251 Y44.431 E47.17492
G1 X112.501 Y44.261 E47.18749
G1 X113.251 Y43.86 E47.22285
G1 X114.949 Y43.414 E47.29584
G1 X182.358 Y43.446 E50.09838
G1 X183.683 Y43.62 E50.15394
G1 X184.747 Y44.068 E50.20194
G1 X185.848 Y44.681 E50.25433
G1 X186.979 Y45.638 E50.31593
G1 X187.972 Y47.079 E50.38868
G1 X188.344 Y47.779 E50.42164
G1 X188.788 Y49.475 E50.49453
G1 X188.728 Y155.187 E54.88952
G1 X188.563 Y156.154 E54.93031
G1 X188.325 Y156.967 E54.96553
G1 X187.522 Y158.369 E55.0327
G1 X186.568 Y159.502 E55.09428
G1 X185.124 Y160.498 E55.16721
G1 X184.424 Y160.87 E55.20016
G1 X182.726 Y161.314 E55.27313
G1 X114.982 Y161.248 E58.0896
G1 X114.368 Y161.148 E58.11547
G1 X113.59 Y161.664 E58.15428
G1 X111.659 Y162.17 E58.23727
G1 X43.985 Y162.116 E61.05083
G1 X42.921 Y161.931 E61.09573
G1 X42.168 Y161.71 E61.12836
G1 X40.774 Y160.912 E61.19514
G1 X39.625 Y159.935 E61.25784
G1 X38.672 Y158.562 E61.32733
G1 X38.269 Y157.808 E61.36287
G1 X37.822 Y156.109 E61.43591
G1 X37.876 Y50.433 E65.82941
G1 X38.061 Y49.369 E65.87431
G1 X38.282 Y48.616 E65.90694
G1 X39.08 Y47.222 E65.97372
G1 X40.057 Y46.073 E66.03642
G0 F9000 X40.396 Y46.446
G1 F1800 X41.666 Y45.561 E66.10078
G1 X42.367 Y45.186 E66.13383
G1 X43.949 Y44.77 E66.20184
G1 X111.227 Y44.798 E68.99893
G1 X112.375 Y44.952 E69.04709
G1 X112.737 Y44.702 E69.06538
G1 X113.434 Y44.329 E69.09824
G1 X115.015 Y43.914 E69.1662
G1 X182.293 Y43.942 E71.9633
G1 X183.551 Y44.107 E72.01604
G1 X184.553 Y44.529 E72.06125
G1 X185.56 Y45.092 E72.10921
G1 X186.605 Y45.977 E72.16614
G1 X187.53 Y47.313 E72.2337
G1 X187.874 Y47.961 E72.2642
G1 X188.288 Y49.541 E72.33211
G1 X188.228 Y155.146 E76.72266
G1 X188.083 Y156.013 E76.7592
G1 X187.861 Y156.771 E76.79204
G1 X187.112 Y158.079 E76.85471
G1 X186.227 Y159.131 E76.91186
G1 X184.89 Y160.056 E76.97945
G1 X184.242 Y160.4 E77.00996
G1 X182.66 Y160.814 E77.07794
G1 X115.062 Y160.754 E79.88834
G1 X114.255 Y160.623 E79.92233
G1 X113.382 Y161.201 E79.96586
G1 X111.593 Y161.67 E80.04275
G1 X44.029 Y161.616 E82.85174
G1 X43.062 Y161.451 E82.89252
G1 X42.366 Y161.247 E82.92268
G1 X41.062 Y160.5 E82.98516
G1 X39.998 Y159.596 E83.0432
G1 X39.113 Y158.326 E83.10756
G1 X38.738 Y157.625 E83.14061
G1 X38.322 Y156.043 E83.20862
G1 X38.376 Y50.477 E87.59754
G1 X38.541 Y49.51 E87.63833
G1 X38.745 Y48.814 E87.66848
G1 X39.492 Y47.51 E87.73096
G1 X40.396 Y46.446 E87.78901
G0 F9000 X40.734 Y46.82
G1 F1800 X41.902 Y46.002 E87.84829
G1 X42.55 Y45.655 E87.87885
G1 X44.015 Y45.27 E87.94183
G1 X111.162 Y45.294 E90.73348
G1 X112.285 Y45.442 E90.78057
G1 X112.465 Y45.497 E90.78839
G1 X113.021 Y45.114 E90.81646
G1 X113.617 Y44.798 E90.84451
G1 X115.081 Y44.414 E90.90743
G1 X182.228 Y44.438 E93.69908
G1 X183.422 Y44.595 E93.74915
G1 X184.309 Y44.965 E93.78911
G1 X185.271 Y45.503 E93.83493
G1 X186.232 Y46.316 E93.88726
G1 X187.088 Y47.547 E93.9496
G1 X187.404 Y48.143 E93.97765
G1 X187.788 Y49.607 E94.04057
G1 X187.734 Y155.066 E98.42505
G1 X187.603 Y155.872 E98.459
G1 X187.397 Y156.575 E98.48945
G1 X186.702 Y157.789 E98.54761
G1 X185.887 Y158.758 E98.60025
G1 X184.656 Y159.614 E98.66259
G1 X184.06 Y159.93 E98.69064
G1 X182.594 Y160.314 E98.75364
G1 X115.142 Y160.26 E101.55797
G1 X114.348 Y160.132 E101.59141
G1 X114.166 Y160.082 E101.59925
G1 X113.176 Y160.738 E101.64863
G1 X111.527 Y161.17 E101.7195
G1 X44.07 Y161.116 E104.52404
G1 X43.203 Y160.971 E104.56058
G1 X42.562 Y160.783 E104.58836
G1 X41.352 Y160.09 E104.64633
G1 X40.372 Y159.258 E104.69978
G1 X39.554 Y158.09 E104.75906
G1 X39.207 Y157.442 E104.78962
G1 X38.822 Y155.977 E104.8526
G1 X38.876 Y50.518 E109.23707
G1 X39.021 Y49.651 E109.27362
G1 X39.209 Y49.01 E109.30139
G1 X39.902 Y47.8 E109.35936
G1 X40.734 Y46.82 E109.41281
G0 F9000 X41.071 Y47.195
G1 F1800 X42.189 Y46.412 E109.46956
G1 X42.733 Y46.124 E109.49515
G1 X44.081 Y45.77 E109.55309
G1 X111.097 Y45.79 E112.33929
G1 X112.22 Y45.938 E112.38639
G1 X112.531 Y46.061 E112.40029
G1 X113.255 Y45.556 E112.43699
G1 X113.799 Y45.268 E112.46258
G1 X115.147 Y44.914 E112.52052
G1 X182.163 Y44.934 E115.30673
G1 X183.292 Y45.082 E115.35407
G1 X184.065 Y45.401 E115.38883
G1 X184.982 Y45.914 E115.43252
G1 X185.86 Y46.656 E115.48031
G1 X186.646 Y47.781 E115.53737
G1 X186.934 Y48.325 E115.56296
G1 X187.288 Y49.673 E115.6209
G1 X187.24 Y154.986 E119.99931
G1 X187.109 Y155.792 E120.03326
G1 X186.934 Y156.378 E120.05868
G1 X186.292 Y157.499 E120.11239
G1 X185.547 Y158.385 E120.16052
G1 X184.422 Y159.172 E120.2176
G1 X183.878 Y159.46 E120.24319
G1 X182.528 Y159.814 E120.30121
G1 X115.222 Y159.766 E123.09947
G1 X114.428 Y159.638 E123.13291
G1 X114.082 Y159.538 E123.14788
G1 X112.968 Y160.275 E123.20342
G1 X111.461 Y160.67 E123.26819
G1 X44.15 Y160.622 E126.06665
G1 X43.344 Y160.491 E126.1006
G1 X42.76 Y160.32 E126.1259
G1 X41.637 Y159.676 E126.17972
G1 X40.747 Y158.921 E126.22824
G1 X39.964 Y157.803 E126.28499
G1 X39.676 Y157.259 E126.31058
G1 X39.322 Y155.911 E126.36853
G1 X39.37 Y50.598 E130.74693
G1 X39.501 Y49.792 E130.78088
G1 X39.672 Y49.208 E130.80618
G1 X40.316 Y48.085 E130.86
G1 X41.071 Y47.195 E130.90852
G0 F9000 X41.408 Y47.569
G1 F1800 X42.423 Y46.854 E130.96014
G1 X42.915 Y46.594 E130.98328
G1 X44.147 Y46.27 E131.03624
G1 X111.032 Y46.286 E133.817
G1 X112.096 Y46.426 E133.86161
G1 X112.598 Y46.626 E133.88408
G1 X113.489 Y45.998 E133.9294
G1 X113.981 Y45.738 E133.95253
G1 X115.213 Y45.414 E134.0055
G1 X182.098 Y45.43 E136.78625
G1 X183.164 Y45.57 E136.83095
G1 X183.821 Y45.837 E136.86044
G1 X184.693 Y46.325 E136.90198
G1 X185.487 Y46.996 E136.9452
G1 X186.204 Y48.015 E136.997
G1 X186.464 Y48.507 E137.02014
G1 X186.788 Y49.739 E137.0731
G1 X186.746 Y154.906 E141.44544
G1 X186.615 Y155.712 E141.47939
G1 X186.471 Y156.18 E141.49974
G1 X185.88 Y157.213 E141.54922
G1 X185.208 Y158.011 E141.5926
G1 X184.188 Y158.73 E141.64448
G1 X183.696 Y158.99 E141.66761
G1 X182.462 Y159.314 E141.72066
G1 X115.299 Y159.272 E144.51297
G1 X114.567 Y159.158 E144.54377
G1 X113.999 Y158.993 E144.56836
G1 X112.762 Y159.812 E144.63004
G1 X111.395 Y160.17 E144.68879
G1 X44.23 Y160.128 E147.48119
G1 X43.424 Y159.997 E147.51514
G1 X42.957 Y159.856 E147.53542
G1 X41.921 Y159.262 E147.58507
G1 X41.121 Y158.584 E147.62867
G1 X40.406 Y157.569 E147.68028
G1 X40.146 Y157.077 E147.70342
G1 X39.822 Y155.845 E147.75638
G1 X39.864 Y50.678 E152.12872
G1 X39.995 Y49.872 E152.16267
G1 X40.136 Y49.405 E152.18295
G1 X40.73 Y48.369 E152.2326
G1 X41.408 Y47.569 E152.27619
G0 F9000 X41.746 Y47.943
G1 F1800 X42.711 Y47.263 E152.32528
G1 X43.096 Y47.064 E152.34329
G1 X44.213 Y46.77 E152.39131
G1 X110.967 Y46.782 E155.16662
G1 X111.972 Y46.914 E155.20877
G1 X112.711 Y47.209 E155.24185
G1 X112.864 Y47.05 E155.25102
G1 X113.777 Y46.407 E155.29745
G1 X114.162 Y46.208 E155.31547
G1 X115.279 Y45.914 E155.36349
G1 X182.033 Y45.926 E158.1388
G1 X183.038 Y46.058 E158.18094
G1 X183.577 Y46.273 E158.20506
G1 X184.404 Y46.736 E158.24447
G1 X185.115 Y47.337 E158.28317
G1 X185.795 Y48.303 E158.33229
G1 X185.994 Y48.688 E158.35031
G1 X186.288 Y49.805 E158.39833
G1 X186.252 Y154.826 E162.76459
G1 X186.121 Y155.632 E162.79854
G1 X186.011 Y155.978 E162.81364
G1 X185.468 Y156.927 E162.85909
G1 X184.869 Y157.638 E162.89775
G1 X183.9 Y158.321 E162.94703
G1 X183.515 Y158.52 E162.96505
G1 X182.396 Y158.814 E163.01315
G1 X115.376 Y158.778 E165.79952
G1 X114.644 Y158.664 E165.83032
G1 X114.222 Y158.538 E165.84863
G1 X113.908 Y158.358 E165.86368
G1 X113.643 Y158.63 E165.87947
G1 X112.554 Y159.349 E165.93372
G1 X111.329 Y159.67 E165.98637
G1 X44.31 Y159.634 E168.7727
G1 X43.504 Y159.503 E168.80665
G1 X43.158 Y159.394 E168.82173
G1 X42.205 Y158.848 E168.86739
G1 X41.495 Y158.246 E168.90609
G1 X40.815 Y157.281 E168.95517
G1 X40.616 Y156.896 E168.97319
G1 X40.322 Y155.779 E169.02121
G1 X40.358 Y50.758 E173.38748
G1 X40.489 Y49.952 E173.42143
G1 X40.598 Y49.606 E173.43651
G1 X41.144 Y48.653 E173.48217
G1 X41.746 Y47.943 E173.52087
G0 F9000 X42.086 Y48.315
G1 F1800 X42.999 Y47.672 E173.5673
G1 X43.275 Y47.534 E173.58013
G1 X44.279 Y47.27 E173.62329
G1 X110.902 Y47.278 E176.39315
G1 X111.844 Y47.402 E176.43265
G1 X112.326 Y47.594 E176.45422
G1 X112.808 Y47.865 E176.47721
G1 X113.152 Y47.459 E176.49934
G1 X114.065 Y46.816 E176.54576
G1 X114.341 Y46.678 E176.55859
G1 X115.345 Y46.414 E176.60175
G1 X181.968 Y46.422 E179.37162
G1 X182.91 Y46.546 E179.41112
G1 X183.392 Y46.738 E179.43269
G1 X184.116 Y47.147 E179.46726
G1 X184.743 Y47.678 E179.50142
G1 X185.386 Y48.591 E179.54785
G1 X185.524 Y48.867 E179.56068
G1 X185.788 Y49.871 E179.60384
G1 X185.758 Y154.749 E183.96416
G1 X185.644 Y155.481 E183.99496
G1 X185.55 Y155.778 E184.00791
G1 X185.056 Y156.641 E184.04925
G1 X184.53 Y157.265 E184.08318
G1 X183.612 Y157.912 E184.12987
G1 X183.336 Y158.05 E184.1427
G1 X182.33 Y158.314 E184.18594
G1 X115.453 Y158.284 E186.96637
G1 X114.721 Y158.17 E186.99717
G1 X114.422 Y158.076 E187.0102
G1 X113.803 Y157.721 E187.03986
G1 X113.368 Y158.213 E187.06717
G1 X112.348 Y158.886 E187.11797
G1 X111.263 Y159.17 E187.1646
G1 X44.387 Y159.14 E189.94498
G1 X43.655 Y159.026 E189.97578
G1 X43.358 Y158.932 E189.98873
G1 X42.495 Y158.438 E190.03008
G1 X41.867 Y157.906 E190.06429
G1 X41.224 Y156.993 E190.11072
G1 X41.086 Y156.717 E190.12355
G1 X40.822 Y155.713 E190.16671
G1 X40.852 Y50.835 E194.52703
G1 X40.966 Y50.103 E194.55783
G1 X41.06 Y49.806 E194.57078
G1 X41.554 Y48.943 E194.61212
G1 X42.086 Y48.315 E194.64634
G0 F9000 X42.424 Y48.689
G1 F1800 X43.287 Y48.081 E194.69023
G1 X43.448 Y48.006 E194.69762
G1 X44.345 Y47.77 E194.73618
G1 X110.837 Y47.774 E197.50059
G1 X111.716 Y47.89 E197.53746
G1 X112.141 Y48.059 E197.55647
G1 X112.723 Y48.392 E197.58435
G1 X112.929 Y48.555 E197.59527
G1 X113.062 Y48.338 E197.60585
G1 X113.49 Y47.833 E197.63337
G1 X114.353 Y47.225 E197.67726
G1 X114.514 Y47.15 E197.68465
G1 X115.411 Y46.914 E197.72321
G1 X181.903 Y46.918 E200.48763
G1 X182.782 Y47.034 E200.52449
G1 X183.207 Y47.203 E200.5435
G1 X183.831 Y47.56 E200.57339
G1 X184.369 Y48.016 E200.60271
G1 X184.977 Y48.879 E200.6466
G1 X185.052 Y49.04 E200.65399
G1 X185.288 Y49.937 E200.69255
G1 X185.264 Y154.672 E205.04692
G1 X185.15 Y155.404 E205.07772
G1 X185.09 Y155.575 E205.08526
G1 X184.642 Y156.357 E205.12273
G1 X184.191 Y156.892 E205.15182
G1 X183.324 Y157.503 E205.19591
G1 X183.163 Y157.578 E205.2033
G1 X182.264 Y157.814 E205.24194
G1 X115.53 Y157.79 E208.01642
G1 X114.798 Y157.676 E208.04722
G1 X114.626 Y157.616 E208.05479
G1 X113.886 Y157.192 E208.09025
G1 X113.677 Y157.025 E208.10137
G1 X113.521 Y157.286 E208.11401
G1 X113.038 Y157.832 E208.14432
G1 X112.144 Y158.422 E208.18885
G1 X111.197 Y158.67 E208.22955
G1 X44.464 Y158.646 E211.00399
G1 X43.732 Y158.532 E211.03479
G1 X43.56 Y158.472 E211.04236
G1 X42.781 Y158.026 E211.07968
G1 X42.241 Y157.568 E211.10912
G1 X41.633 Y156.705 E211.15301
G1 X41.558 Y156.544 E211.16039
G1 X41.322 Y155.647 E211.19896
G1 X41.346 Y50.912 E215.55333
G1 X41.46 Y50.18 E215.58413
G1 X41.52 Y50.008 E215.59171
G1 X41.966 Y49.229 E215.62903
G1 X42.424 Y48.689 E215.65846
G0 F9000 X42.764 Y49.061
G1 F1800 X43.575 Y48.49 E215.6997
G1 X44.411 Y48.27 E215.73564
G1 X110.772 Y48.27 E218.49461
G1 X111.591 Y48.378 E218.52895
G1 X111.893 Y48.493 E218.54239
G1 X112.475 Y48.826 E218.57027
G1 X112.88 Y49.169 E218.59233
G1 X113.04 Y49.367 E218.60292
G1 X113.444 Y48.661 E218.63673
G1 X113.83 Y48.205 E218.66157
G1 X114.641 Y47.634 E218.70281
G1 X115.477 Y47.414 E218.73875
G1 X181.838 Y47.414 E221.49772
G1 X182.657 Y47.522 E221.53206
G1 X182.959 Y47.637 E221.5455
G1 X183.541 Y47.97 E221.57338
G1 X183.997 Y48.356 E221.59821
G1 X184.568 Y49.167 E221.63945
G1 X184.788 Y50.003 E221.67539
G1 X184.77 Y154.595 E226.02382
G1 X184.656 Y155.327 E226.05462
G1 X184.23 Y156.071 E226.09026
G1 X183.852 Y156.519 E226.11463
G1 X183.036 Y157.094 E226.15614
G1 X182.198 Y157.314 E226.19216
G1 X115.607 Y157.296 E228.96069
G1 X114.875 Y157.182 E228.99149
G1 X114.135 Y156.758 E229.02695
G1 X113.73 Y156.415 E229.04901
G1 X113.549 Y156.188 E229.06108
G1 X113.465 Y156.406 E229.0708
G1 X113.116 Y156.99 E229.09908
G1 X112.708 Y157.451 E229.12468
G1 X111.94 Y157.958 E229.16294
G1 X111.131 Y158.17 E229.19771
G1 X44.541 Y158.152 E231.9662
G1 X43.809 Y158.038 E231.997
G1 X43.069 Y157.614 E232.03245
G1 X42.613 Y157.228 E232.05729
G1 X42.042 Y156.417 E232.09853
G1 X41.822 Y155.581 E232.13447
G1 X41.84 Y50.989 E236.4829
G1 X41.954 Y50.257 E236.5137
G1 X42.378 Y49.517 E236.54916
G1 X42.764 Y49.061 E236.57399
G0 F9000 X43.102 Y49.435
G1 F1800 X43.789 Y48.951 E236.60893
G1 X44.477 Y48.77 E236.63851
G1 X110.772 Y48.77 E239.39474
G1 X111.469 Y48.866 E239.42399
G1 X111.645 Y48.927 E239.43173
G1 X112.189 Y49.238 E239.45778
