;FLAVOR:Marlin
;TIME:17529
;Filament used: 17.8925m
;Layer height: 0.2
;MINX:36.72
;MINY:48.153
;MINZ:0.2
;MAXX:193.867
;MAXY:161.847
;MAXZ:28.56
;TARGET_MACHINE.NAME:Flying Bear Ghost 5
;Generated with Cura_SteamEngine 5.10.0
M140 S110
M105
M190 S110
M104 S240
M105
M109 S240
M220 S100 ;reset feedrate
M221 S100 ;reset flowrate
G90 ;use absolute coordinates
M82 ;absolute extrusion mode
G28 ;home
G1 Z2 F1500 ;raise z
G92 E0 ;reset extruder

G1 X75 Y5 F5000 ;start position
G1 Z0.28 F1500 ;lower z
G1 E4 F500 ;prime the filament
G1 X180 E10 F500 ;1st line
G1 Y5.4 F5000
G1 X75 E20 F500 ;2nd line
G1 Z2 F1500 ;raise z
G92 E0 ;reset extruder
M82 ;absolute extrusion mode
G92 E0
G92 E0
G1 F1500 E-6.5
;LAYER_COUNT:146
;LAYER:0
M107
G0 F9000 X39.975 Y50.075 Z0.2
;TYPE:SKIRT
G1 F1500 E0
G1 F1800 X42.02 Y48.889 E0.09828
G1 X44.318 Y48.153 E0.19861
G1 X98.877 Y48.157 E2.4669
G1 X101.169 Y48.65 E2.56437
G1 X103.32 Y49.902 E2.66785
G1 X104.927 Y51.367 E2.75826
G1 X106.173 Y53.514 E2.86146
G1 X106.88 Y55.744 E2.95872
G1 X106.876 Y153.851 E7.03754
G1 X106.374 Y156.153 E7.13549
G1 X105.155 Y158.243 E7.23608
G1 X103.627 Y159.924 E7.33053
G1 X101.58 Y161.111 E7.42891
G1 X99.282 Y161.847 E7.52923
G1 X44.723 Y161.843 E9.79753
G1 X42.431 Y161.35 E9.895
G1 X40.28 Y160.098 E9.99847
G1 X38.673 Y158.633 E10.08888
G1 X37.427 Y156.486 E10.19208
G1 X36.72 Y154.256 E10.28934
G1 X36.724 Y56.188 E14.36654
G1 X37.241 Y53.834 E14.46674
G1 X38.445 Y51.759 E14.56648
G1 X39.975 Y50.075 E14.66107
G0 F9000 X40.291 Y50.47
G1 F1800 X42.226 Y49.348 E14.75406
G1 X44.396 Y48.653 E14.8488
G1 X98.823 Y48.657 E17.11161
G1 X100.988 Y49.123 E17.20368
G1 X103.019 Y50.305 E17.30138
G1 X104.535 Y51.687 E17.38666
G1 X105.712 Y53.715 E17.48415
G1 X106.38 Y55.822 E17.57605
G1 X106.376 Y153.795 E21.64929
G1 X105.902 Y155.97 E21.74184
G1 X104.749 Y157.947 E21.83699
G1 X103.311 Y159.529 E21.92587
G1 X101.374 Y160.652 E22.01896
G1 X99.204 Y161.347 E22.11369
G1 X44.777 Y161.343 E24.3765
G1 X42.612 Y160.877 E24.46857
G1 X40.581 Y159.695 E24.56627
G1 X39.065 Y158.313 E24.65156
G1 X37.888 Y156.285 E24.74904
G1 X37.22 Y154.178 E24.84094
G1 X37.224 Y56.24 E28.91273
G1 X37.712 Y54.02 E29.00723
G1 X38.853 Y52.053 E29.10177
G1 X40.291 Y50.47 E29.19068
G0 F9000 X40.607 Y50.865
G1 F1800 X42.432 Y49.807 E29.27839
G1 X44.474 Y49.153 E29.36753
G1 X98.769 Y49.157 E31.62486
G1 X100.807 Y49.596 E31.71153
G1 X102.718 Y50.708 E31.80345
G1 X104.143 Y52.007 E31.88362
G1 X105.251 Y53.916 E31.97538
G1 X105.88 Y55.9 E32.06192
G1 X105.876 Y153.739 E36.12959
G1 X105.43 Y155.787 E36.21673
G1 X104.343 Y157.651 E36.30644
G1 X102.995 Y159.134 E36.38976
G1 X101.168 Y160.193 E36.47756
G1 X99.126 Y160.847 E36.5667
G1 X44.831 Y160.843 E38.82402
G1 X42.793 Y160.404 E38.9107
G1 X40.882 Y159.292 E39.00262
G1 X39.457 Y157.993 E39.08279
G1 X38.349 Y156.084 E39.17455
G1 X37.72 Y154.1 E39.26108
G1 X37.724 Y56.292 E43.32747
G1 X38.183 Y54.203 E43.41639
G1 X39.258 Y52.35 E43.50546
G1 X40.607 Y50.865 E43.58887
G0 F9000 X40.923 Y51.26
G1 F1800 X42.638 Y50.266 E43.67128
G1 X44.552 Y49.653 E43.75483
G1 X98.715 Y49.657 E46.00667
G1 X100.626 Y50.069 E46.08795
G1 X102.417 Y51.111 E46.17409
G1 X103.751 Y52.327 E46.24914
G1 X104.79 Y54.117 E46.33518
G1 X105.38 Y55.978 E46.41635
G1 X105.376 Y153.684 E50.47849
G1 X104.958 Y155.604 E50.56019
G1 X103.937 Y157.355 E50.64446
G1 X102.679 Y158.739 E50.72222
G1 X100.962 Y159.734 E50.80472
G1 X99.048 Y160.347 E50.88828
G1 X44.885 Y160.343 E53.14011
G1 X42.974 Y159.931 E53.22139
G1 X41.183 Y158.889 E53.30754
G1 X39.849 Y157.673 E53.38258
G1 X38.81 Y155.883 E53.46863
G1 X38.22 Y154.022 E53.5498
G1 X38.224 Y56.344 E57.61077
G1 X38.654 Y54.386 E57.69412
G1 X39.663 Y52.647 E57.77771
G1 X40.923 Y51.26 E57.85561
G0 F9000 X41.239 Y51.655
G1 F1800 X42.844 Y50.725 E57.93273
G1 X44.63 Y50.153 E58.0107
G1 X98.661 Y50.157 E60.25705
G1 X100.445 Y50.542 E60.33293
G1 X102.116 Y51.514 E60.4133
G1 X103.359 Y52.647 E60.48322
G1 X104.329 Y54.318 E60.56355
G1 X104.88 Y56.056 E60.63935
G1 X104.876 Y153.629 E64.69597
G1 X104.486 Y155.421 E64.77221
G1 X103.531 Y157.059 E64.85104
G1 X102.363 Y158.344 E64.92324
G1 X100.756 Y159.275 E65.00045
G1 X98.97 Y159.847 E65.07842
G1 X44.939 Y159.843 E67.32477
G1 X43.155 Y159.458 E67.40065
G1 X41.484 Y158.486 E67.48102
G1 X40.241 Y157.353 E67.55094
G1 X39.271 Y155.682 E67.63127
G1 X38.72 Y153.944 E67.70707
G1 X38.724 Y56.396 E71.76265
G1 X39.125 Y54.572 E71.84029
G1 X40.071 Y52.941 E71.91868
G1 X41.239 Y51.655 E71.99091
G0 F9000 X41.555 Y52.05
G1 F1800 X43.05 Y51.184 E72.06274
G1 X44.708 Y50.653 E72.13512
G1 X98.607 Y50.657 E74.37598
G1 X100.262 Y51.014 E74.44637
G1 X101.817 Y51.919 E74.52117
G1 X102.967 Y52.967 E74.58585
G1 X103.868 Y54.519 E74.66046
G1 X104.38 Y56.134 E74.7309
G1 X104.376 Y153.574 E78.78199
G1 X104.014 Y155.238 E78.85279
G1 X103.125 Y156.763 E78.92617
G1 X102.047 Y157.949 E78.99281
G1 X100.55 Y158.816 E79.06473
G1 X98.892 Y159.347 E79.13711
G1 X44.993 Y159.343 E81.37797
G1 X43.338 Y158.986 E81.44836
G1 X41.783 Y158.081 E81.52316
G1 X40.633 Y157.033 E81.58785
G1 X39.732 Y155.481 E81.66246
G1 X39.22 Y153.866 E81.7329
G1 X39.224 Y56.448 E85.78306
G1 X39.596 Y54.755 E85.85513
G1 X40.476 Y53.238 E85.92804
G1 X41.555 Y52.05 E85.99477
G0 F9000 X41.872 Y52.444
G1 F1800 X43.254 Y51.644 E86.06116
G1 X44.786 Y51.153 E86.12804
G1 X98.552 Y51.157 E88.36337
G1 X100.08 Y51.487 E88.42836
G1 X101.518 Y52.324 E88.49754
G1 X102.575 Y53.287 E88.55699
G1 X103.407 Y54.72 E88.62588
G1 X103.88 Y56.212 E88.69095
G1 X103.876 Y153.519 E92.7365
G1 X103.542 Y155.055 E92.80186
G1 X102.719 Y156.467 E92.8698
G1 X101.731 Y157.554 E92.93087
G1 X100.344 Y158.357 E92.99751
G1 X98.814 Y158.847 E93.0643
G1 X45.048 Y158.843 E95.29963
G1 X43.52 Y158.513 E95.36462
G1 X42.082 Y157.676 E95.4338
G1 X41.025 Y156.713 E95.49324
G1 X40.193 Y155.28 E95.56213
G1 X39.72 Y153.788 E95.62721
G1 X39.724 Y56.5 E99.67197
G1 X40.067 Y54.938 E99.73846
G1 X40.881 Y53.535 E99.8059
G1 X41.872 Y52.444 E99.86717
G0 F9000 X42.188 Y52.839
G1 F1800 X43.461 Y52.102 E99.92833
G1 X44.863 Y51.653 E99.98953
G1 X98.497 Y51.657 E102.21938
G1 X99.899 Y51.96 E102.27901
G1 X101.217 Y52.727 E102.34241
G1 X102.183 Y53.607 E102.39674
G1 X102.946 Y54.921 E102.45991
G1 X103.38 Y56.29 E102.51962
G1 X103.376 Y153.464 E106.55964
G1 X103.07 Y154.872 E106.61955
G1 X102.313 Y156.171 E106.68205
G1 X101.414 Y157.16 E106.73762
G1 X100.139 Y157.898 E106.79887
G1 X98.737 Y158.347 E106.86007
G1 X45.103 Y158.343 E109.08992
G1 X43.701 Y158.04 E109.14955
G1 X42.383 Y157.273 E109.21295
G1 X41.417 Y156.393 E109.26728
G1 X40.654 Y155.079 E109.33045
G1 X40.22 Y153.71 E109.39016
G1 X40.224 Y56.552 E113.42952
G1 X40.538 Y55.121 E113.49043
G1 X41.286 Y53.832 E113.55239
G1 X42.188 Y52.839 E113.60816
G0 F9000 X42.505 Y53.233
G1 F1800 X43.666 Y52.561 E113.66393
G1 X44.94 Y52.153 E113.71955
G1 X98.442 Y52.157 E115.9439
G1 X99.718 Y52.433 E115.99818
G1 X100.916 Y53.13 E116.0558
G1 X101.791 Y53.927 E116.10501
G1 X102.485 Y55.122 E116.16246
G1 X102.88 Y56.368 E116.21681
G1 X102.876 Y153.409 E120.2513
G1 X102.598 Y154.689 E120.30576
G1 X101.907 Y155.875 E120.36283
G1 X101.098 Y156.765 E120.41283
G1 X99.932 Y157.44 E120.46884
G1 X98.66 Y157.847 E120.52437
G1 X45.158 Y157.843 E122.74872
G1 X43.882 Y157.567 E122.803
G1 X42.684 Y156.87 E122.86062
G1 X41.809 Y156.073 E122.90983
G1 X41.115 Y154.878 E122.96728
G1 X40.72 Y153.632 E123.02163
G1 X40.724 Y56.604 E127.05558
G1 X41.009 Y55.307 E127.11079
G1 X41.694 Y54.126 E127.16755
G1 X42.505 Y53.233 E127.21771
G0 F9000 X42.821 Y53.628
G1 F1800 X43.873 Y53.019 E127.26824
G1 X45.017 Y52.653 E127.31818
G1 X98.387 Y52.657 E129.53705
G1 X99.537 Y52.906 E129.58597
G1 X100.615 Y53.533 E129.63781
G1 X101.399 Y54.247 E129.6819
G1 X102.024 Y55.323 E129.73363
G1 X102.38 Y56.446 E129.78261
G1 X102.376 Y153.354 E133.81158
G1 X102.126 Y154.506 E133.86059
G1 X101.501 Y155.579 E133.91221
G1 X100.782 Y156.37 E133.95666
G1 X99.725 Y156.982 E134.00744
G1 X98.583 Y157.347 E134.05728
G1 X45.213 Y157.343 E136.27615
G1 X44.063 Y157.094 E136.32507
G1 X42.985 Y156.467 E136.37691
G1 X42.201 Y155.753 E136.421
G1 X41.576 Y154.677 E136.47273
G1 X41.22 Y153.554 E136.52171
G1 X41.224 Y56.656 E140.55026
G1 X41.48 Y55.49 E140.5999
G1 X42.099 Y54.423 E140.65118
G1 X42.821 Y53.628 E140.69583
G0 F9000 X43.137 Y54.023
G1 F1800 X44.08 Y53.477 E140.74113
G1 X45.094 Y53.153 E140.78539
G1 X98.332 Y53.157 E142.99877
G1 X99.356 Y53.379 E143.04233
G1 X100.314 Y53.936 E143.0884
G1 X101.007 Y54.567 E143.12737
G1 X101.563 Y55.524 E143.17338
G1 X101.88 Y56.524 E143.217
G1 X101.876 Y153.299 E147.24043
G1 X101.654 Y154.323 E147.284
G1 X101.095 Y155.283 E147.33018
G1 X100.465 Y155.976 E147.36912
G1 X99.52 Y156.523 E147.41451
G1 X98.506 Y156.847 E147.45877
G1 X45.268 Y156.843 E149.67215
G1 X44.244 Y156.621 E149.71571
G1 X43.286 Y156.064 E149.76178
G1 X42.593 Y155.433 E149.80075
G1 X42.037 Y154.476 E149.84676
G1 X41.72 Y153.476 E149.89038
G1 X41.724 Y56.708 E153.91352
G1 X41.951 Y55.673 E153.95758
G1 X42.504 Y54.72 E154.00339
G1 X43.137 Y54.023 E154.04253
G0 F9000 X43.454 Y54.417
G1 F1800 X44.285 Y53.936 E154.08245
G1 X45.171 Y53.653 E154.12112
G1 X98.277 Y53.657 E156.32901
G1 X99.175 Y53.852 E156.36721
G1 X100.016 Y54.341 E156.40766
G1 X100.614 Y54.885 E156.44127
G1 X101.102 Y55.725 E156.48166
G1 X101.38 Y56.602 E156.51991
G1 X101.376 Y153.244 E160.53782
G1 X101.181 Y154.142 E160.57602
G1 X100.692 Y154.983 E160.61647
G1 X100.146 Y155.583 E160.65019
G1 X99.315 Y156.064 E160.69011
G1 X98.429 Y156.347 E160.72878
G1 X45.323 Y156.343 E162.93667
G1 X44.425 Y156.148 E162.97488
G1 X43.584 Y155.659 E163.01532
G1 X42.986 Y155.115 E163.04893
G1 X42.498 Y154.275 E163.08932
G1 X42.22 Y153.398 E163.12757
G1 X42.224 Y56.76 E167.14531
G1 X42.422 Y55.856 E167.18379
G1 X42.909 Y55.017 E167.22412
G1 X43.454 Y54.417 E167.25782
G0 F9000 X43.77 Y54.812
G1 F1800 X44.492 Y54.394 E167.2925
G1 X45.248 Y54.153 E167.32549
G1 X98.222 Y54.157 E169.5279
G1 X98.994 Y54.325 E169.56074
G1 X99.718 Y54.746 E169.59556
G1 X100.221 Y55.203 E169.62382
G1 X100.641 Y55.926 E169.65858
G1 X100.88 Y56.68 E169.69147
G1 X100.876 Y153.189 E173.70384
G1 X100.708 Y153.961 E173.73669
G1 X100.287 Y154.685 E173.77151
G1 X99.83 Y155.188 E173.79976
G1 X99.108 Y155.606 E173.83445
G1 X98.352 Y155.847 E173.86744
G1 X45.378 Y155.843 E176.06984
G1 X44.606 Y155.675 E176.10269
G1 X43.882 Y155.254 E176.13751
G1 X43.379 Y154.797 E176.16576
G1 X42.959 Y154.074 E176.20053
G1 X42.72 Y153.32 E176.23341
G1 X42.724 Y56.812 E180.24575
G1 X42.893 Y56.042 E180.27852
G1 X43.317 Y55.311 E180.31366
G1 X43.77 Y54.812 E180.34167
G0 F9000 X44.087 Y55.206
G1 F1800 X44.697 Y54.853 E180.37098
G1 X45.325 Y54.653 E180.39838
G1 X98.166 Y54.657 E182.59525
G1 X98.813 Y54.798 E182.62278
G1 X99.421 Y55.151 E182.65201
G1 X99.828 Y55.521 E182.67488
G1 X100.18 Y56.127 E182.70402
G1 X100.38 Y56.758 E182.73154
G1 X100.376 Y153.133 E186.73834
G1 X100.235 Y153.78 E186.76587
G1 X99.882 Y154.388 E186.7951
G1 X99.513 Y154.794 E186.81791
G1 X98.903 Y155.147 E186.84721
G1 X98.275 Y155.347 E186.87461
G1 X45.434 Y155.343 E189.07149
G1 X44.787 Y155.202 E189.09902
G1 X44.179 Y154.849 E189.12825
G1 X43.772 Y154.479 E189.15112
G1 X43.42 Y153.873 E189.18025
G1 X43.22 Y153.242 E189.20777
G1 X43.224 Y56.864 E193.2147
G1 X43.364 Y56.225 E193.2419
G1 X43.722 Y55.608 E193.27156
G1 X44.087 Y55.206 E193.29413
G0 F9000 X44.723 Y55.993
G1 F1800 X45.102 Y55.773 E193.31235
G1 X45.481 Y55.653 E193.32888
G1 X98.062 Y55.657 E195.51494
G1 X98.441 Y55.74 E195.53107
G1 X98.876 Y55.992 E195.55197
G1 X99.04 Y56.156 E195.56162
G1 X99.26 Y56.535 E195.57984
G1 X99.38 Y56.913 E195.59632
G1 X99.376 Y153.029 E199.59236
G1 X99.293 Y153.408 E199.60849
G1 X99.041 Y153.843 E199.62939
G1 X98.877 Y154.007 E199.63904
G1 X98.498 Y154.227 E199.65726
G1 X98.119 Y154.347 E199.67378
G1 X45.538 Y154.343 E201.85985
G1 X45.159 Y154.26 E201.87598
G1 X44.724 Y154.008 E201.89688
G1 X44.56 Y153.844 E201.90652
G1 X44.34 Y153.465 E201.92474
G1 X44.22 Y153.087 E201.94123
G1 X44.224 Y56.968 E205.93739
G1 X44.306 Y56.594 E205.95331
G1 X44.56 Y56.156 E205.97436
G1 X44.723 Y55.993 E205.98395
G0 F9000 X44.404 Y55.6
G1 F1800 X44.902 Y55.312 E206.00786
G1 X45.402 Y55.153 E206.02968
G1 X98.114 Y55.157 E208.22119
G1 X98.627 Y55.269 E208.24302
G1 X99.127 Y55.559 E208.26705
G1 X99.433 Y55.837 E208.28424
G1 X99.721 Y56.334 E208.30812
G1 X99.88 Y56.834 E208.32993
G1 X99.876 Y153.081 E212.33142
G1 X99.764 Y153.594 E212.35325
G1 X99.474 Y154.094 E212.37728
G1 X99.196 Y154.4 E212.39447
G1 X98.698 Y154.688 E212.41838
G1 X98.198 Y154.847 E212.4402
G1 X45.486 Y154.843 E214.63171
G1 X44.973 Y154.731 E214.65354
G1 X44.473 Y154.441 E214.67757
G1 X44.167 Y154.163 E214.69476
G1 X43.879 Y153.666 E214.71864
G1 X43.72 Y153.166 E214.74045
G1 X43.724 Y56.916 E218.74206
G1 X43.835 Y56.408 E218.76368
G1 X44.127 Y55.905 E218.78786
G1 X44.404 Y55.6 E218.80499
G1 F1500 E212.30499
G0 F9000 X45.465 Y55.439
G0 X98.089 Y55.443
G0 X123.792 Y55.793
G1 F1500 E218.80499
G1 F1800 X123.962 Y54.739 E218.84938
G1 X124.741 Y52.843 E218.9346
G1 X125.908 Y51.098 E219.02187
G1 X127.48 Y49.809 E219.10639
G1 X128.63 Y49.053 E219.16361
G1 X131.223 Y48.153 E219.27772
G1 X185.862 Y48.157 E221.54935
G1 X188.172 Y48.668 E221.64771
G1 X190.234 Y49.855 E221.74663
G1 X191.74 Y51.17 E221.82975
G1 X193.186 Y53.422 E221.94102
G1 X193.867 Y55.983 E222.05119
G1 X193.867 Y154.011 E226.12672
G1 X193.185 Y156.586 E226.23747
G1 X191.944 Y158.495 E226.33213
G1 X190.55 Y159.955 E226.41606
G1 X188.502 Y161.142 E226.51447
G1 X186.279 Y161.847 E226.61143
G1 X131.757 Y161.844 E228.87819
G1 X129.857 Y161.439 E228.95896
G1 X127.961 Y160.619 E229.04484
G1 X125.845 Y158.834 E229.15993
G1 X124.391 Y156.556 E229.27229
G1 X123.714 Y154.015 E229.38162
G1 X123.792 Y55.793 E233.46521
G0 F9000 X124.286 Y55.873
G1 F1800 X124.447 Y54.876 E233.5072
G1 X125.185 Y53.079 E233.58797
G1 X126.283 Y51.437 E233.67009
G1 X127.755 Y50.227 E233.74931
G1 X128.855 Y49.504 E233.80404
G1 X131.306 Y48.653 E233.91191
G1 X185.808 Y48.657 E236.17784
G1 X187.99 Y49.14 E236.27075
G1 X189.938 Y50.261 E236.36419
G1 X191.358 Y51.501 E236.44257
G1 X192.723 Y53.627 E236.54761
G1 X193.367 Y56.048 E236.65176
G1 X193.367 Y153.947 E240.72193
G1 X192.722 Y156.381 E240.82661
G1 X191.552 Y158.181 E240.91587
G1 X190.236 Y159.559 E240.99509
G1 X188.302 Y160.681 E241.08805
G1 X186.201 Y161.347 E241.17968
G1 X131.809 Y161.344 E243.44104
G1 X130.012 Y160.961 E243.51742
G1 X128.225 Y160.188 E243.59837
G1 X126.225 Y158.501 E243.70715
G1 X124.854 Y156.353 E243.8131
G1 X124.214 Y153.95 E243.91648
G1 X124.286 Y55.873 E247.99405
G0 F9000 X124.78 Y55.953
G1 F1800 X124.932 Y55.013 E248.03364
G1 X125.629 Y53.315 E248.10995
G1 X126.658 Y51.776 E248.18692
G1 X128.03 Y50.645 E248.26084
G1 X129.08 Y49.955 E248.31308
G1 X131.389 Y49.153 E248.4147
G1 X185.754 Y49.157 E250.67494
G1 X187.807 Y49.611 E250.76235
G1 X189.644 Y50.669 E250.85049
G1 X190.976 Y51.832 E250.924
G1 X192.261 Y53.833 E251.02287
G1 X192.867 Y56.112 E251.12092
G1 X192.867 Y153.883 E255.18576
G1 X192.259 Y156.176 E255.28439
G1 X191.16 Y157.867 E255.36823
G1 X189.922 Y159.163 E255.44275
G1 X188.101 Y160.22 E255.53029
G1 X186.123 Y160.847 E255.61656
G1 X131.861 Y160.844 E257.87251
G1 X130.167 Y160.483 E257.94452
G1 X128.489 Y159.757 E258.02053
G1 X126.605 Y158.168 E258.123
G1 X125.317 Y156.15 E258.22253
G1 X124.714 Y153.885 E258.31998
G1 X124.78 Y55.953 E262.39152
G0 F9000 X125.274 Y56.033
G1 F1800 X125.417 Y55.15 E262.42871
G1 X126.073 Y53.551 E262.50056
G1 X127.033 Y52.115 E262.57238
G1 X128.348 Y51.031 E262.64323
G1 X129.303 Y50.406 E262.69068
G1 X131.472 Y49.653 E262.78614
G1 X185.7 Y49.657 E265.04067
G1 X187.625 Y50.083 E265.12264
G1 X189.348 Y51.075 E265.2053
G1 X190.594 Y52.163 E265.27407
G1 X191.798 Y54.038 E265.36671
G1 X192.367 Y56.177 E265.45874
G1 X192.367 Y153.819 E269.51822
G1 X191.796 Y155.971 E269.61078
G1 X190.768 Y157.553 E269.68922
G1 X189.608 Y158.767 E269.75903
G1 X187.9 Y159.759 E269.84115
G1 X186.045 Y160.347 E269.92205
G1 X131.913 Y160.344 E272.1726
G1 X130.322 Y160.005 E272.24023
G1 X128.753 Y159.326 E272.31131
G1 X126.985 Y157.835 E272.40746
