;FLAVOR:Marlin
;TIME:15812
;Filament used: 17.312m
;Layer height: 0.2
;MINX:33.805
;MINY:48.153
;MINZ:0.2
;MAXX:177.676
;MAXY:161.847
;MAXZ:28.52
;TARGET_MACHINE.NAME:Flying Bear Ghost 5
;Generated with Cura_SteamEngine 5.10.0
M140 S110
M105
M190 S110
M104 S240
M105
M109 S240
M220 S100 ;reset feedrate
M221 S100 ;reset flowrate
G90 ;use absolute coordinates
M82 ;absolute extrusion mode
G28 ;home
G1 Z2 F1500 ;raise z
G92 E0 ;reset extruder

G1 X75 Y5 F5000 ;start position
G1 Z0.28 F1500 ;lower z
G1 E4 F500 ;prime the filament
G1 X180 E10 F500 ;1st line
G1 Y5.4 F5000
G1 X75 E20 F500 ;2nd line
G1 Z2 F1500 ;raise z
G92 E0 ;reset extruder
M82 ;absolute extrusion mode
G92 E0
G92 E0
G1 F1500 E-6.5
;LAYER_COUNT:134
;LAYER:0
M107
G0 F9000 X37.456 Y49.782 Z0.2
;TYPE:SKIRT
G1 F1500 E0
G1 F1800 X39.323 Y48.803 E0.08765
G1 X41.454 Y48.153 E0.18027
G1 X95.956 Y48.157 E2.4462
G1 X97.85 Y48.577 E2.52686
G1 X99.739 Y49.406 E2.61262
G1 X101.795 Y51.128 E2.72412
G1 X103.282 Y53.454 E2.8389
G1 X103.958 Y55.978 E2.94753
G1 X103.872 Y154.095 E7.02677
G1 X103.749 Y154.858 E7.0589
G1 X103.35 Y156.334 E7.12246
G1 X102.32 Y158.079 E7.20671
G1 X101.601 Y159.044 E7.25674
G1 X99.778 Y160.5 E7.35374
G1 X99.06 Y160.943 E7.38881
G1 X96.614 Y161.796 E7.49651
G1 X96.214 Y161.847 E7.51328
G1 X41.858 Y161.844 E9.77314
G1 X40.029 Y161.457 E9.85086
G1 X38.257 Y160.716 E9.93072
G1 X36.221 Y159.158 E10.0373
G1 X34.868 Y157.195 E10.13642
G1 X34.434 Y156.386 E10.17459
G1 X33.805 Y154.054 E10.27501
G1 X33.805 Y55.944 E14.35395
G1 X34.424 Y53.713 E14.45021
G1 X34.708 Y53.022 E14.48127
G1 X35.992 Y51.194 E14.57414
G1 X37.456 Y49.782 E14.6587
G0 F9000 X37.751 Y50.192
G1 F1800 X39.515 Y49.267 E14.74151
G1 X41.528 Y48.653 E14.82901
G1 X95.902 Y48.657 E17.08962
G1 X97.692 Y49.054 E17.16585
G1 X99.474 Y49.836 E17.24675
G1 X101.416 Y51.462 E17.35206
G1 X102.819 Y53.657 E17.46036
G1 X103.458 Y56.043 E17.56306
G1 X103.378 Y154.015 E21.63626
G1 X103.255 Y154.778 E21.66839
G1 X102.886 Y156.135 E21.72686
G1 X101.889 Y157.825 E21.80844
G1 X101.241 Y158.692 E21.85344
G1 X99.516 Y160.074 E21.94533
G1 X98.843 Y160.489 E21.9782
G1 X96.498 Y161.307 E22.08146
G1 X96.214 Y161.347 E22.09338
G1 X41.909 Y161.344 E24.35112
G1 X40.179 Y160.978 E24.42464
G1 X38.51 Y160.28 E24.49985
G1 X36.589 Y158.81 E24.60042
G1 X35.28 Y156.911 E24.69631
G1 X34.903 Y156.202 E24.7297
G1 X34.305 Y153.987 E24.82508
G1 X34.305 Y56.012 E28.89841
G1 X34.887 Y53.903 E28.98937
G1 X35.151 Y53.26 E29.01827
G1 X36.372 Y51.522 E29.10657
G1 X37.751 Y50.192 E29.18623
G0 F9000 X38.046 Y50.602
G1 F1800 X39.707 Y49.731 E29.2642
G1 X41.602 Y49.153 E29.34657
G1 X95.848 Y49.157 E31.60186
G1 X97.534 Y49.531 E31.67365
G1 X99.209 Y50.266 E31.7497
G1 X101.037 Y51.796 E31.84881
G1 X102.356 Y53.86 E31.95065
G1 X102.958 Y56.108 E32.0474
G1 X102.884 Y153.935 E36.11458
G1 X102.761 Y154.698 E36.14671
G1 X102.422 Y155.937 E36.20011
G1 X101.458 Y157.571 E36.27899
G1 X100.879 Y158.341 E36.31904
G1 X99.254 Y159.648 E36.40574
G1 X98.626 Y160.035 E36.43641
G1 X96.379 Y160.819 E36.53535
G1 X96.214 Y160.847 E36.54231
G1 X41.96 Y160.844 E38.79793
G1 X40.329 Y160.499 E38.86724
G1 X38.763 Y159.844 E38.93781
G1 X36.957 Y158.462 E39.03236
G1 X35.692 Y156.627 E39.12502
G1 X35.372 Y156.019 E39.15358
G1 X34.805 Y153.92 E39.24398
G1 X34.805 Y56.079 E43.31173
G1 X35.349 Y54.093 E43.39734
G1 X35.592 Y53.502 E43.42391
G1 X36.752 Y51.85 E43.50783
G1 X38.046 Y50.602 E43.58258
G0 F9000 X38.341 Y51.012
G1 F1800 X39.899 Y50.195 E43.65572
G1 X41.676 Y49.653 E43.73296
G1 X95.794 Y49.657 E45.98292
G1 X97.376 Y50.008 E46.05029
G1 X98.944 Y50.696 E46.12148
G1 X100.658 Y52.13 E46.21439
G1 X101.893 Y54.063 E46.30976
G1 X102.458 Y56.173 E46.40057
G1 X102.39 Y153.855 E50.46172
G1 X102.267 Y154.618 E50.49385
G1 X101.957 Y155.741 E50.54229
G1 X101.058 Y157.27 E50.61603
G1 X100.515 Y157.992 E50.65359
G1 X98.991 Y159.223 E50.73504
G1 X98.411 Y159.581 E50.76337
G1 X96.214 Y160.347 E50.86011
G1 X42.011 Y160.344 E53.1136
G1 X40.479 Y160.02 E53.17871
G1 X39.016 Y159.408 E53.24464
G1 X37.325 Y158.114 E53.33316
G1 X36.104 Y156.343 E53.4226
G1 X35.841 Y155.836 E53.44634
G1 X35.305 Y153.853 E53.53175
G1 X35.305 Y56.144 E57.59401
G1 X35.812 Y54.283 E57.67421
G1 X36.035 Y53.74 E57.69861
G1 X37.132 Y52.178 E57.77797
G1 X38.341 Y51.012 E57.8478
G0 F9000 X38.636 Y51.422
G1 F1800 X40.091 Y50.659 E57.9161
G1 X41.75 Y50.153 E57.98821
G1 X95.74 Y50.157 E60.23286
G1 X97.218 Y50.485 E60.2958
G1 X98.677 Y51.125 E60.36204
G1 X100.28 Y52.466 E60.44893
G1 X101.43 Y54.266 E60.53773
G1 X101.958 Y56.238 E60.62261
G1 X101.896 Y153.775 E64.67772
G1 X101.773 Y154.538 E64.70985
G1 X101.492 Y155.546 E64.75336
G1 X100.658 Y156.97 E64.82197
G1 X100.152 Y157.643 E64.85698
G1 X98.729 Y158.797 E64.93315
G1 X98.194 Y159.127 E64.95928
G1 X96.129 Y159.847 E65.0502
G1 X42.062 Y159.844 E67.29805
G1 X40.629 Y159.541 E67.35894
G1 X39.269 Y158.972 E67.42023
G1 X37.691 Y157.764 E67.50285
G1 X36.548 Y156.112 E67.58637
G1 X36.309 Y155.652 E67.60793
G1 X35.805 Y153.786 E67.68829
G1 X35.805 Y56.212 E71.74494
G1 X36.275 Y54.473 E71.81983
G1 X36.478 Y53.978 E71.84208
G1 X37.512 Y52.506 E71.91687
G1 X38.636 Y51.422 E71.98179
G0 F9000 X38.931 Y51.832
G1 F1800 X40.283 Y51.123 E72.04526
G1 X41.824 Y50.653 E72.11224
G1 X95.686 Y50.657 E74.35156
G1 X97.06 Y50.962 E74.41007
G1 X98.41 Y51.554 E74.47136
G1 X99.902 Y52.802 E74.55223
G1 X100.967 Y54.469 E74.63447
G1 X101.458 Y56.303 E74.71341
G1 X101.402 Y153.695 E78.7625
G1 X101.279 Y154.458 E78.79463
G1 X101.029 Y155.347 E78.83302
G1 X100.258 Y156.67 E78.89668
G1 X99.789 Y157.294 E78.92914
G1 X98.414 Y158.409 E79.00274
G1 X97.979 Y158.673 E79.02389
G1 X96.044 Y159.347 E79.10908
G1 X42.113 Y159.344 E81.35127
G1 X40.779 Y159.062 E81.40796
G1 X39.522 Y158.536 E81.46461
G1 X38.058 Y157.415 E81.54127
G1 X36.992 Y155.881 E81.61893
G1 X36.777 Y155.468 E81.63829
G1 X36.305 Y153.719 E81.71361
G1 X36.305 Y56.279 E85.76469
G1 X36.758 Y54.603 E85.83687
G1 X36.92 Y54.218 E85.85424
G1 X37.892 Y52.834 E85.92455
G1 X38.931 Y51.832 E85.98456
G0 F9000 X39.226 Y52.242
G1 F1800 X40.475 Y51.587 E86.0432
G1 X41.898 Y51.153 E86.10505
G1 X95.632 Y51.157 E88.33905
G1 X96.902 Y51.439 E88.39313
G1 X98.143 Y51.983 E88.44947
G1 X99.524 Y53.138 E88.52432
G1 X100.504 Y54.672 E88.6
G1 X100.958 Y56.368 E88.67299
G1 X100.908 Y153.615 E92.71605
G1 X100.785 Y154.378 E92.74818
G1 X100.565 Y155.149 E92.78152
G1 X99.858 Y156.369 E92.84014
G1 X99.423 Y156.947 E92.87022
G1 X98.155 Y157.981 E92.93824
G1 X97.762 Y158.219 E92.95734
G1 X95.959 Y158.847 E93.03672
G1 X42.164 Y158.844 E95.27325
G1 X40.929 Y158.583 E95.32573
G1 X39.775 Y158.1 E95.37774
G1 X38.424 Y157.066 E95.44848
G1 X37.403 Y155.596 E95.52289
G1 X37.246 Y155.286 E95.53733
G1 X36.805 Y153.652 E95.6077
G1 X36.805 Y56.346 E99.65321
G1 X37.241 Y54.733 E99.72268
G1 X37.361 Y54.459 E99.73511
G1 X38.272 Y53.162 E99.80101
G1 X39.226 Y52.242 E99.85611
G0 F9000 X39.521 Y52.652
G1 F1800 X40.667 Y52.051 E99.90991
G1 X41.972 Y51.653 E99.96663
G1 X95.578 Y51.657 E102.19531
G1 X96.744 Y51.916 E102.24497
G1 X97.876 Y52.412 E102.29635
G1 X99.146 Y53.474 E102.36518
G1 X100.041 Y54.875 E102.4343
G1 X100.458 Y56.433 E102.50135
G1 X100.414 Y153.535 E106.53839
G1 X100.291 Y154.298 E106.57052
G1 X100.102 Y154.949 E106.5987
G1 X99.425 Y156.118 E106.65486
G1 X99.06 Y156.598 E106.67993
G1 X97.896 Y157.553 E106.74253
G1 X97.547 Y157.764 E106.75949
G1 X95.874 Y158.347 E106.83314
G1 X42.215 Y158.344 E109.06402
G1 X41.079 Y158.104 E109.1123
G1 X40.028 Y157.664 E109.15967
G1 X38.79 Y156.716 E109.22449
G1 X37.849 Y155.37 E109.29277
G1 X37.716 Y155.107 E109.30503
G1 X37.305 Y153.585 E109.37057
G1 X37.305 Y56.413 E113.41051
G1 X37.724 Y54.863 E113.47727
G1 X37.798 Y54.706 E113.48448
G1 X38.652 Y53.49 E113.54626
G1 X39.521 Y52.652 E113.59645
G0 F9000 X39.816 Y53.062
G1 F1800 X40.859 Y52.515 E113.64542
G1 X42.046 Y52.153 E113.69701
G1 X95.523 Y52.157 E115.92033
G1 X96.589 Y52.394 E115.96573
G1 X97.608 Y52.84 E116.01197
G1 X98.768 Y53.81 E116.07484
G1 X99.578 Y55.078 E116.13739
G1 X99.958 Y56.498 E116.19851
G1 X99.92 Y153.455 E120.22951
G1 X99.797 Y154.218 E120.26164
G1 X99.64 Y154.748 E120.28462
G1 X98.992 Y155.867 E120.33838
G1 X98.698 Y156.248 E120.35839
G1 X97.637 Y157.125 E120.41562
G1 X97.331 Y157.31 E120.43049
G1 X95.789 Y157.847 E120.49837
G1 X42.266 Y157.844 E122.7236
G1 X41.229 Y157.625 E122.76767
G1 X40.281 Y157.228 E122.8104
G1 X39.155 Y156.366 E122.86935
G1 X38.259 Y155.084 E122.93438
G1 X38.186 Y154.928 E122.94154
G1 X37.805 Y153.518 E123.00226
G1 X37.805 Y56.48 E127.03663
G1 X38.207 Y54.993 E127.10068
G1 X39.032 Y53.818 E127.16037
G1 X39.816 Y53.062 E127.20565
G0 F9000 X40.111 Y53.472
G1 F1800 X41.051 Y52.979 E127.24978
G1 X42.12 Y52.653 E127.29624
G1 X95.468 Y52.657 E129.51419
G1 X96.434 Y52.872 E129.55534
G1 X97.34 Y53.268 E129.59644
G1 X98.39 Y54.146 E129.65335
G1 X99.115 Y55.281 E129.70934
G1 X99.458 Y56.563 E129.76452
G1 X99.426 Y153.375 E133.78949
G1 X99.303 Y154.138 E133.82162
G1 X99.177 Y154.549 E133.8395
G1 X98.559 Y155.617 E133.8908
G1 X98.337 Y155.898 E133.90568
G1 X97.378 Y156.697 E133.95758
G1 X97.115 Y156.856 E133.97036
G1 X95.705 Y157.347 E134.03243
G1 X42.317 Y157.344 E136.25205
G1 X41.379 Y157.146 E136.2919
G1 X40.534 Y156.792 E136.32999
G1 X39.52 Y156.016 E136.38308
G1 X38.669 Y154.798 E136.44485
G1 X38.305 Y153.451 E136.50286
G1 X38.305 Y56.548 E140.53162
G1 X38.668 Y55.206 E140.58942
G1 X39.412 Y54.146 E140.64326
G1 X40.111 Y53.472 E140.68363
G0 F9000 X40.406 Y53.882
G1 F1800 X41.243 Y53.443 E140.72293
G1 X42.194 Y53.153 E140.76426
G1 X95.414 Y53.157 E142.97689
G1 X96.278 Y53.349 E143.01369
G1 X97.072 Y53.696 E143.04971
G1 X98.012 Y54.482 E143.10066
G1 X98.652 Y55.484 E143.15009
G1 X98.958 Y56.628 E143.19932
G1 X98.932 Y153.295 E147.21827
G1 X98.809 Y154.058 E147.2504
G1 X98.715 Y154.349 E147.26311
G1 X98.166 Y155.308 E147.30906
G1 X97.977 Y155.548 E147.32176
G1 X97.058 Y156.313 E147.37147
G1 X96.902 Y156.401 E147.37892
G1 X95.621 Y156.847 E147.43531
G1 X42.369 Y156.844 E149.64927
G1 X41.528 Y156.666 E149.68501
G1 X40.787 Y156.356 E149.7184
G1 X39.885 Y155.666 E149.76562
G1 X39.13 Y154.585 E149.82044
G1 X38.805 Y153.383 E149.87221
G1 X38.805 Y56.615 E153.89535
G1 X39.128 Y55.42 E153.94682
G1 X39.792 Y54.474 E153.99487
G1 X40.406 Y53.882 E154.03033
G0 F9000 X40.701 Y54.292
G1 F1800 X41.435 Y53.907 E154.06479
G1 X42.268 Y53.653 E154.10099
G1 X95.36 Y53.657 E156.3083
G1 X96.123 Y53.826 E156.34079
G1 X96.804 Y54.124 E156.3717
G1 X97.634 Y54.818 E156.41668
G1 X98.189 Y55.687 E156.45955
G1 X98.458 Y56.693 E156.50284
G1 X98.438 Y153.215 E160.51576
G1 X98.315 Y153.978 E160.54789
G1 X98.255 Y154.146 E160.55531
G1 X97.732 Y155.06 E160.59909
G1 X97.618 Y155.196 E160.60647
G1 X96.738 Y155.929 E160.65408
G1 X95.536 Y156.347 E160.70699
G1 X42.421 Y156.344 E162.91526
G1 X41.677 Y156.186 E162.94688
G1 X41.04 Y155.92 E162.97558
G1 X40.25 Y155.316 E163.01692
G1 X39.59 Y154.371 E163.06484
G1 X39.305 Y153.316 E163.11028
G1 X39.305 Y56.683 E167.12781
G1 X39.589 Y55.633 E167.17303
G1 X40.172 Y54.802 E167.21524
G1 X40.701 Y54.292 E167.24579
G0 F9000 X40.996 Y54.702
G1 F1800 X41.627 Y54.371 E167.27541
G1 X42.342 Y54.153 E167.30649
G1 X95.306 Y54.157 E169.50848
G1 X95.966 Y54.303 E169.53658
G1 X96.537 Y54.553 E169.56249
G1 X97.256 Y55.154 E169.60145
G1 X97.726 Y55.89 E169.63776
G1 X97.958 Y56.758 E169.67511
G1 X97.944 Y153.135 E173.682
G1 X97.821 Y153.898 E173.71414
G1 X97.298 Y154.812 E173.75792
G1 X96.489 Y155.487 E173.80172
G1 X95.453 Y155.847 E173.84732
G1 X42.473 Y155.844 E176.04997
G1 X41.824 Y155.706 E176.07756
G1 X41.294 Y155.485 E176.10143
G1 X40.615 Y154.966 E176.13696
G1 X40.05 Y154.157 E176.17799
G1 X39.805 Y153.249 E176.21709
G1 X39.805 Y56.75 E180.22905
G1 X40.049 Y55.847 E180.26794
G1 X40.552 Y55.13 E180.30435
G1 X40.996 Y54.702 E180.32999
G0 F9000 X41.291 Y55.112
G1 F1800 X41.819 Y54.835 E180.35478
G1 X42.416 Y54.653 E180.38073
G1 X95.252 Y54.657 E182.57739
G1 X95.809 Y54.78 E182.60111
G1 X96.27 Y54.982 E182.62204
G1 X96.878 Y55.49 E182.65497
G1 X97.263 Y56.093 E182.68472
G1 X97.458 Y56.823 E182.71613
G1 X97.45 Y153.055 E186.71699
G1 X97.341 Y153.73 E186.74542
G1 X96.91 Y154.484 E186.78153
G1 X96.239 Y155.045 E186.81789
G1 X95.37 Y155.347 E186.85614
G1 X42.525 Y155.344 E189.05318
G1 X41.975 Y155.227 E189.07656
G1 X41.545 Y155.048 E189.09592
G1 X40.98 Y154.616 E189.12549
G1 X40.51 Y153.943 E189.15962
G1 X40.305 Y153.182 E189.19239
G1 X40.305 Y56.818 E193.19874
G1 X40.51 Y56.06 E193.23138
G1 X40.932 Y55.458 E193.26195
G1 X41.291 Y55.112 E193.28268
G0 F9000 X41.88 Y55.932
G1 F1800 X42.203 Y55.763 E193.29783
G1 X42.564 Y55.653 E193.31352
G1 X95.144 Y55.657 E195.49954
G1 X95.546 Y55.746 E195.51666
G1 X95.737 Y55.84 E195.52551
G1 X96.119 Y56.159 E195.5462
G1 X96.337 Y56.501 E195.56307
G1 X96.458 Y56.953 E195.58252
G1 X96.462 Y152.895 E199.57132
G1 X96.381 Y153.394 E199.59234
G1 X96.13 Y153.833 E199.61337
G1 X95.739 Y154.161 E199.63458
G1 X95.204 Y154.347 E199.65813
G1 X42.629 Y154.344 E201.84395
G1 X42.23 Y154.259 E201.86091
G1 X42.05 Y154.176 E201.86915
G1 X41.712 Y153.917 E201.88685
G1 X41.43 Y153.514 E201.9073
G1 X41.305 Y153.048 E201.92736
G1 X41.305 Y56.952 E205.92257
G1 X41.43 Y56.488 E205.94255
G1 X41.721 Y56.073 E205.96362
G1 X41.88 Y55.932 E205.97245
G0 F9000 X41.586 Y55.522
G1 F1800 X42.011 Y55.299 E205.99241
G1 X42.49 Y55.153 E206.01323
G1 X95.198 Y55.157 E208.20457
G1 X95.654 Y55.258 E208.22399
G1 X96.002 Y55.41 E208.23978
G1 X96.5 Y55.826 E208.26676
G1 X96.8 Y56.296 E208.28994
G1 X96.958 Y56.888 E208.31541
G1 X96.956 Y152.975 E212.31024
G1 X96.861 Y153.562 E212.33497
G1 X96.52 Y154.158 E212.36351
G1 X95.989 Y154.603 E212.39232
G1 X95.287 Y154.847 E212.42322
G1 X42.577 Y154.844 E214.61464
G1 X42.126 Y154.748 E214.63381
G1 X41.796 Y154.611 E214.64867
G1 X41.345 Y154.266 E214.67228
G1 X40.97 Y153.729 E214.69951
G1 X40.805 Y153.115 E214.72594
G1 X40.805 Y56.885 E218.72672
G1 X40.97 Y56.274 E218.75303
G1 X41.312 Y55.786 E218.77781
G1 X41.586 Y55.522 E218.79363
G1 F1500 E212.29363
G0 F9000 X42.547 Y55.439
G0 X95.171 Y55.443
G0 X107.575 Y56.055
G1 F1500 E218.79363
G1 F1800 X107.759 Y54.757 E218.84813
G1 X108.737 Y52.41 E218.95384
G1 X110.261 Y50.638 E219.05101
G1 X111.019 Y49.932 E219.09407
G1 X113.191 Y48.672 E219.19847
G1 X115.563 Y48.153 E219.29942
G1 X169.677 Y48.157 E221.54922
G1 X171.995 Y48.675 E221.64797
G1 X173.985 Y49.827 E221.74356
G1 X175.562 Y51.199 E221.83047
G1 X176.898 Y53.277 E221.93318
G1 X177.676 Y55.756 E222.0412
G1 X177.672 Y153.876 E226.12055
G1 X177.185 Y155.905 E226.20731
G1 X176.868 Y156.772 E226.24568
G1 X175.745 Y158.504 E226.3315
G1 X174.341 Y159.968 E226.41584
G1 X171.994 Y161.325 E226.52855
G1 X169.677 Y161.843 E226.62726
G1 X115.531 Y161.847 E228.87839
G1 X113.236 Y161.354 E228.97598
G1 X111.137 Y160.132 E229.07696
G1 X109.627 Y158.798 E229.16072
G1 X108.292 Y156.721 E229.26337
G1 X107.516 Y154.248 E229.37113
G1 X107.575 Y56.055 E233.45352
G0 F9000 X108.07 Y56.125
G1 F1800 X108.245 Y54.892 E233.5053
G1 X109.169 Y52.675 E233.60516
G1 X110.602 Y51.004 E233.69668
G1 X111.318 Y50.337 E233.73736
G1 X113.377 Y49.143 E233.83632
G1 X115.615 Y48.653 E233.93156
G1 X169.622 Y48.657 E236.17691
G1 X171.811 Y49.146 E236.27017
G1 X173.694 Y50.236 E236.36062
G1 X175.179 Y51.528 E236.44246
G1 X176.441 Y53.491 E236.53948
G1 X177.176 Y55.833 E236.64153
G1 X177.172 Y153.818 E240.71527
G1 X176.715 Y155.733 E240.79713
G1 X176.416 Y156.551 E240.83334
G1 X175.353 Y158.19 E240.91455
G1 X174.029 Y159.571 E240.99409
G1 X171.81 Y160.854 E241.10066
G1 X169.622 Y161.343 E241.19387
G1 X115.585 Y161.347 E243.44047
G1 X113.419 Y160.882 E243.53257
G1 X111.431 Y159.725 E243.6282
G1 X110.01 Y158.469 E243.70705
G1 X108.749 Y156.507 E243.80401
G1 X108.016 Y154.171 E243.9058
G1 X108.07 Y56.125 E247.98208
G0 F9000 X108.565 Y56.195
G1 F1800 X108.731 Y55.027 E248.03113
G1 X109.601 Y52.94 E248.12514
G1 X110.943 Y51.37 E248.211
G1 X111.62 Y50.74 E248.24945
G1 X113.56 Y49.614 E248.34271
G1 X115.667 Y49.153 E248.43238
G1 X169.567 Y49.157 E250.67328
G1 X171.627 Y49.617 E250.76104
G1 X173.403 Y50.645 E250.84635
G1 X174.796 Y51.857 E250.92312
