;FLAVOR:Marlin
;TIME:17409
;Filament used: 17.8264m
;Layer height: 0.2
;MINX:36.72
;MINY:48.153
;MINZ:0.2
;MAXX:170.701
;MAXY:161.847
;MAXZ:28.56
;TARGET_MACHINE.NAME:Flying Bear Ghost 5
;LINEARADVANCEPROCESSED
;Generated with Cura_SteamEngine 5.10.0
M140 S110
M105
M190 S110
M104 S240
M105
M109 S240
M220 S100 ;reset feedrate
M221 S100 ;reset flowrate
G90 ;use absolute coordinates
M82 ;absolute extrusion mode
G28 ;home
G1 Z2 F1500 ;raise z
G92 E0 ;reset extruder

G1 X75 Y5 F5000 ;start position
G1 Z0.28 F1500 ;lower z
G1 E4 F500 ;prime the filament
G1 X180 E10 F500 ;1st line
G1 Y5.4 F5000
G1 X75 E20 F500 ;2nd line
G1 Z2 F1500 ;raise z
G92 E0 ;reset extruder
M82 ;absolute extrusion mode
G92 E0
G92 E0
G1 F1500 E-6.5
;LAYER_COUNT:146
M900 K0.083000 T0 ;added by LinearAdvanceSettingPlugin
;LAYER:0
M107
G0 F9000 X39.975 Y50.075 Z0.2
;TYPE:SKIRT
G1 F1500 E0
G1 F1800 X42.02 Y48.889 E0.09828
G1 X44.318 Y48.153 E0.19861
G1 X98.877 Y48.157 E2.4669
G1 X101.169 Y48.65 E2.56437
G1 X103.314 Y49.898 E2.66755
G1 X103.74 Y50.288 E2.69156
G1 X104.586 Y49.618 E2.73643
G1 X105.516 Y49.03 E2.78217
G1 X107.895 Y48.207 E2.88683
G1 X108.221 Y48.153 E2.90057
G1 X162.699 Y48.157 E5.1655
G1 X164.593 Y48.577 E5.24616
G1 X166.482 Y49.406 E5.33192
G1 X168.538 Y51.128 E5.44342
G1 X170.025 Y53.454 E5.5582
G1 X170.701 Y55.978 E5.66683
G1 X170.623 Y154.207 E9.75072
G1 X170.453 Y155.253 E9.79478
G1 X169.678 Y157.141 E9.87963
G1 X168.502 Y158.907 E9.96784
G1 X166.955 Y160.175 E10.051
G1 X165.781 Y160.952 E10.10953
G1 X163.395 Y161.786 E10.21462
G1 X162.882 Y161.847 E10.23609
G1 X108.572 Y161.843 E12.49404
G1 X106.212 Y161.327 E12.59448
G1 X104.216 Y160.172 E12.69035
G1 X103.765 Y159.774 E12.71536
G1 X103.564 Y159.961 E12.72678
G1 X101.58 Y161.111 E12.82212
G1 X99.282 Y161.847 E12.92244
G1 X44.731 Y161.844 E15.1904
G1 X42.429 Y161.349 E15.2883
G1 X40.326 Y160.131 E15.38933
G1 X38.668 Y158.622 E15.48254
G1 X37.427 Y156.486 E15.58525
G1 X36.72 Y154.256 E15.68251
G1 X36.724 Y56.188 E19.7597
G1 X37.241 Y53.834 E19.8599
G1 X38.445 Y51.759 E19.95964
G1 X39.975 Y50.075 E20.05423
G0 F9000 X40.291 Y50.47
G1 F1800 X42.226 Y49.348 E20.14723
G1 X44.396 Y48.653 E20.24196
G1 X98.823 Y48.657 E22.50477
G1 X100.988 Y49.123 E22.59684
G1 X103.016 Y50.303 E22.69439
G1 X103.718 Y50.944 E22.73391
G1 X104.853 Y50.041 E22.79421
G1 X105.734 Y49.484 E22.83755
G1 X108.058 Y48.68 E22.93979
G1 X108.221 Y48.653 E22.94666
G1 X162.645 Y48.657 E25.20934
G1 X164.435 Y49.054 E25.28557
G1 X166.217 Y49.836 E25.36648
G1 X168.159 Y51.462 E25.47178
G1 X169.562 Y53.657 E25.58009
G1 X170.201 Y56.043 E25.68278
G1 X170.129 Y154.127 E29.76064
G1 X169.968 Y155.12 E29.80247
G1 X169.235 Y156.904 E29.88265
G1 X168.127 Y158.569 E29.9658
G1 X166.679 Y159.758 E30.0437
G1 X165.557 Y160.501 E30.09964
G1 X163.282 Y161.296 E30.19984
G1 X162.882 Y161.347 E30.2166
G1 X108.624 Y161.343 E32.47239
G1 X106.396 Y160.856 E32.5672
G1 X104.507 Y159.763 E32.65794
G1 X103.727 Y159.073 E32.70123
G1 X103.313 Y159.528 E32.72681
G1 X101.374 Y160.652 E32.81999
G1 X99.204 Y161.347 E32.91472
G1 X44.785 Y161.344 E35.1772
G1 X42.612 Y160.877 E35.26961
G1 X40.623 Y159.725 E35.36517
G1 X39.06 Y158.302 E35.45305
G1 X37.888 Y156.285 E35.55003
G1 X37.22 Y154.178 E35.64193
G1 X37.224 Y56.24 E39.71372
G1 X37.712 Y54.02 E39.80822
G1 X38.853 Y52.053 E39.90276
G1 X40.291 Y50.47 E39.99167
G0 F9000 X40.607 Y50.865
G1 F1800 X42.432 Y49.807 E40.07938
G1 X44.474 Y49.153 E40.16852
G1 X98.769 Y49.157 E42.42584
G1 X100.807 Y49.596 E42.51252
G1 X102.718 Y50.708 E42.60444
G1 X103.697 Y51.601 E42.65953
G1 X105.12 Y50.464 E42.73526
G1 X105.952 Y49.938 E42.77618
G1 X108.221 Y49.153 E42.876
G1 X162.591 Y49.157 E45.13644
G1 X164.277 Y49.531 E45.20824
G1 X165.952 Y50.266 E45.28429
G1 X167.78 Y51.796 E45.3834
G1 X169.099 Y53.86 E45.48524
G1 X169.701 Y56.108 E45.58199
G1 X169.635 Y154.047 E49.65382
G1 X169.483 Y154.983 E49.69324
G1 X168.79 Y156.671 E49.76911
G1 X167.753 Y158.229 E49.84692
G1 X166.403 Y159.341 E49.91963
G1 X165.333 Y160.05 E49.973
G1 X163.166 Y160.807 E50.06843
G1 X162.882 Y160.847 E50.08035
G1 X108.676 Y160.843 E52.33398
G1 X106.58 Y160.385 E52.42318
G1 X104.798 Y159.354 E52.50877
G1 X103.689 Y158.372 E52.57035
G1 X102.995 Y159.134 E52.6132
G1 X101.168 Y160.193 E52.701
G1 X99.126 Y160.847 E52.79014
G1 X44.839 Y160.844 E55.04714
G1 X42.795 Y160.405 E55.13405
G1 X40.92 Y159.319 E55.22414
G1 X39.452 Y157.982 E55.30669
G1 X38.349 Y156.084 E55.39796
G1 X37.72 Y154.1 E55.48449
G1 X37.724 Y56.292 E59.55087
G1 X38.183 Y54.203 E59.63979
G1 X39.258 Y52.35 E59.72886
G1 X40.607 Y50.865 E59.81227
G0 F9000 X40.923 Y51.26
G1 F1800 X42.638 Y50.266 E59.89468
G1 X44.552 Y49.653 E59.97824
G1 X98.715 Y49.657 E62.23007
G1 X100.626 Y50.069 E62.31135
G1 X102.417 Y51.111 E62.39749
G1 X103.737 Y52.314 E62.47175
G1 X103.95 Y52.039 E62.48621
G1 X105.387 Y50.887 E62.56278
G1 X106.17 Y50.392 E62.60129
G1 X108.306 Y49.653 E62.69526
G1 X162.537 Y49.657 E64.94992
G1 X164.119 Y50.008 E65.0173
G1 X165.687 Y50.696 E65.08848
G1 X167.401 Y52.13 E65.18139
G1 X168.636 Y54.063 E65.27676
G1 X169.201 Y56.173 E65.36758
G1 X169.141 Y153.967 E69.43338
G1 X168.998 Y154.85 E69.47057
G1 X168.347 Y156.434 E69.54177
G1 X167.379 Y157.889 E69.61442
G1 X166.085 Y158.955 E69.68413
G1 X165.111 Y159.598 E69.73265
G1 X163.047 Y160.319 E69.82354
G1 X162.882 Y160.347 E69.8305
G1 X108.728 Y160.343 E72.08196
G1 X106.764 Y159.914 E72.16554
G1 X105.092 Y158.947 E72.24585
G1 X103.864 Y157.859 E72.31406
G1 X103.692 Y157.625 E72.32613
G1 X102.679 Y158.739 E72.38873
G1 X100.962 Y159.734 E72.47123
G1 X99.048 Y160.347 E72.55479
G1 X44.893 Y160.344 E74.80629
G1 X42.978 Y159.933 E74.88772
G1 X41.217 Y158.913 E74.97233
G1 X39.844 Y157.662 E75.04956
G1 X38.81 Y155.883 E75.1351
G1 X38.22 Y154.022 E75.21627
G1 X38.224 Y56.344 E79.27725
G1 X38.654 Y54.386 E79.36059
G1 X39.663 Y52.647 E79.44418
G1 X40.923 Y51.26 E79.52209
G0 F9000 X41.239 Y51.655
G1 F1800 X42.844 Y50.725 E79.59921
G1 X44.63 Y50.153 E79.67718
G1 X98.661 Y50.157 E81.92353
G1 X100.445 Y50.542 E81.9994
G1 X102.116 Y51.514 E82.07977
G1 X103.359 Y52.647 E82.1497
G1 X103.71 Y53.251 E82.17874
G1 X104.263 Y52.429 E82.21993
G1 X105.654 Y51.31 E82.29415
G1 X106.39 Y50.845 E82.33035
G1 X108.389 Y50.153 E82.41829
G1 X162.483 Y50.157 E84.66726
G1 X163.961 Y50.485 E84.7302
G1 X165.42 Y51.125 E84.79644
G1 X167.023 Y52.466 E84.88333
G1 X168.173 Y54.266 E84.97214
G1 X168.701 Y56.238 E85.05701
G1 X168.647 Y153.887 E89.11678
G1 X168.513 Y154.713 E89.15158
G1 X167.902 Y156.201 E89.21845
G1 X167.004 Y157.55 E89.28583
G1 X165.809 Y158.538 E89.35029
G1 X164.887 Y159.147 E89.39623
G1 X162.882 Y159.847 E89.48452
G1 X108.785 Y159.843 E91.73361
G1 X106.947 Y159.442 E91.81183
G1 X105.382 Y158.536 E91.88701
G1 X104.195 Y157.485 E91.95292
G1 X103.718 Y156.739 E91.98974
G1 X103.531 Y157.059 E92.00514
G1 X102.363 Y158.344 E92.07734
G1 X100.756 Y159.275 E92.15455
G1 X98.97 Y159.847 E92.23252
G1 X44.947 Y159.844 E94.47854
G1 X43.161 Y159.461 E94.55448
G1 X41.514 Y158.507 E94.63361
G1 X40.236 Y157.342 E94.70551
G1 X39.271 Y155.682 E94.78534
G1 X38.72 Y153.944 E94.86114
G1 X38.724 Y56.396 E98.91671
G1 X39.125 Y54.572 E98.99436
G1 X40.071 Y52.941 E99.07275
G1 X41.239 Y51.655 E99.14497
G0 F9000 X41.555 Y52.05
G1 F1800 X43.05 Y51.184 E99.2168
G1 X44.708 Y50.653 E99.28918
G1 X98.607 Y50.657 E101.53004
G1 X100.262 Y51.014 E101.60043
G1 X101.817 Y51.919 E101.67523
G1 X102.967 Y52.967 E101.73992
G1 X103.705 Y54.238 E101.80102
G1 X103.819 Y53.983 E101.81264
G1 X104.636 Y52.771 E101.87341
G1 X105.921 Y51.733 E101.94208
G1 X106.61 Y51.298 E101.97596
G1 X108.472 Y50.653 E102.05789
G1 X162.429 Y50.657 E104.30116
G1 X163.803 Y50.962 E104.35967
G1 X165.153 Y51.554 E104.42096
G1 X166.645 Y52.802 E104.50183
G1 X167.71 Y54.469 E104.58407
G1 X168.201 Y56.303 E104.663
G1 X168.153 Y153.807 E108.71675
G1 X168.028 Y154.58 E108.7493
G1 X167.459 Y155.964 E108.81152
G1 X166.629 Y157.211 E108.8738
G1 X165.533 Y158.121 E108.93302
G1 X164.663 Y158.696 E108.97638
G1 X162.797 Y159.347 E109.05854
G1 X108.837 Y159.343 E111.30194
G1 X107.133 Y158.971 E111.37445
G1 X105.672 Y158.125 E111.44464
G1 X104.579 Y157.158 E111.50531
G1 X103.698 Y155.78 E111.57331
G1 X103.125 Y156.763 E111.62062
G1 X102.047 Y157.949 E111.68725
G1 X100.55 Y158.816 E111.75917
G1 X98.892 Y159.347 E111.83155
G1 X45.001 Y159.344 E114.07208
G1 X43.344 Y158.989 E114.14253
G1 X41.808 Y158.099 E114.21634
G1 X40.629 Y157.024 E114.28267
G1 X39.732 Y155.481 E114.35688
G1 X39.22 Y153.866 E114.42731
G1 X39.224 Y56.448 E118.47748
G1 X39.596 Y54.755 E118.54955
G1 X40.476 Y53.238 E118.62246
G1 X41.555 Y52.05 E118.68918
G0 F9000 X41.872 Y52.444
G1 F1800 X43.254 Y51.644 E118.75557
G1 X44.786 Y51.153 E118.82246
G1 X98.552 Y51.157 E121.05779
G1 X100.08 Y51.487 E121.12278
G1 X101.518 Y52.324 E121.19195
G1 X102.575 Y53.287 E121.2514
G1 X103.407 Y54.72 E121.32029
G1 X103.688 Y55.605 E121.3589
G1 X104.234 Y54.263 E121.41913
G1 X105.011 Y53.111 E121.4769
G1 X106.188 Y52.156 E121.53992
G1 X106.83 Y51.751 E121.57148
G1 X108.555 Y51.153 E121.64738
G1 X162.375 Y51.157 E123.88496
G1 X163.645 Y51.439 E123.93904
G1 X164.886 Y51.983 E123.99538
G1 X166.267 Y53.138 E124.07023
G1 X167.247 Y54.672 E124.14591
G1 X167.701 Y56.368 E124.2189
G1 X167.659 Y153.727 E128.26662
G1 X167.543 Y154.443 E128.29677
G1 X167.014 Y155.731 E128.35466
G1 X166.254 Y156.873 E128.4117
G1 X165.257 Y157.704 E128.46566
G1 X164.439 Y158.245 E128.50643
G1 X162.712 Y158.847 E128.58247
G1 X108.889 Y158.843 E130.82017
G1 X107.319 Y158.5 E130.88698
G1 X105.965 Y157.716 E130.95203
G1 X104.961 Y156.828 E131.00775
G1 X103.998 Y155.322 E131.08207
G1 X103.714 Y154.263 E131.12766
G1 X103.542 Y155.055 E131.16135
G1 X102.719 Y156.467 E131.2293
G1 X101.731 Y157.554 E131.29037
G1 X100.344 Y158.357 E131.357
G1 X98.814 Y158.847 E131.42379
G1 X45.055 Y158.844 E133.65883
G1 X43.526 Y158.516 E133.72385
G1 X42.104 Y157.693 E133.79216
G1 X41.022 Y156.706 E133.85305
G1 X40.193 Y155.28 E133.92162
G1 X39.72 Y153.788 E133.98669
G1 X39.724 Y56.5 E138.03146
G1 X40.067 Y54.938 E138.09795
G1 X40.881 Y53.535 E138.16538
G1 X41.872 Y52.444 E138.22666
G0 F9000 X42.188 Y52.839
G1 F1800 X43.461 Y52.102 E138.28782
G1 X44.863 Y51.653 E138.34902
G1 X98.497 Y51.657 E140.57886
G1 X99.899 Y51.96 E140.6385
G1 X101.217 Y52.727 E140.7019
G1 X102.183 Y53.607 E140.75622
G1 X102.946 Y54.921 E140.8194
G1 X103.38 Y56.29 E140.8791
G1 X103.376 Y153.464 E144.91913
G1 X103.07 Y154.872 E144.97903
G1 X102.313 Y156.171 E145.04154
G1 X101.414 Y157.16 E145.09711
G1 X100.139 Y157.898 E145.15836
G1 X98.737 Y158.347 E145.21956
G1 X45.109 Y158.344 E147.44915
G1 X43.709 Y158.044 E147.50868
G1 X42.398 Y157.285 E147.57166
G1 X41.415 Y156.388 E147.62699
G1 X40.654 Y155.079 E147.68994
G1 X40.22 Y153.71 E147.74965
G1 X40.224 Y56.552 E151.78901
G1 X40.538 Y55.121 E151.84992
G1 X41.286 Y53.832 E151.91188
G1 X42.188 Y52.839 E151.96765
G0 F9000 X42.505 Y53.233
G1 F1800 X43.666 Y52.561 E152.02342
G1 X44.94 Y52.153 E152.07904
G1 X98.442 Y52.157 E154.30339
G1 X99.718 Y52.433 E154.35767
G1 X100.916 Y53.13 E154.41529
G1 X101.791 Y53.927 E154.4645
G1 X102.485 Y55.122 E154.52195
G1 X102.88 Y56.368 E154.57629
G1 X102.876 Y153.409 E158.61079
G1 X102.598 Y154.689 E158.66525
G1 X101.907 Y155.875 E158.72231
G1 X101.098 Y156.765 E158.77232
G1 X99.932 Y157.44 E158.82833
G1 X98.66 Y157.847 E158.88386
G1 X45.163 Y157.844 E161.108
G1 X43.891 Y157.571 E161.16209
G1 X42.694 Y156.879 E161.21957
G1 X41.808 Y156.07 E161.26946
G1 X41.115 Y154.878 E161.32678
G1 X40.72 Y153.632 E161.38112
G1 X40.724 Y56.604 E165.41508
G1 X41.009 Y55.307 E165.47029
G1 X41.694 Y54.126 E165.52705
G1 X42.505 Y53.233 E165.5772
G0 F9000 X42.821 Y53.628
G1 F1800 X43.873 Y53.019 E165.62774
G1 X45.017 Y52.653 E165.67768
G1 X98.387 Y52.657 E167.89654
G1 X99.537 Y52.906 E167.94546
G1 X100.615 Y53.533 E167.99731
G1 X101.399 Y54.247 E168.0414
G1 X102.024 Y55.323 E168.09313
G1 X102.38 Y56.446 E168.14211
G1 X102.376 Y153.354 E172.17108
G1 X102.126 Y154.506 E172.22009
G1 X101.501 Y155.579 E172.27171
G1 X100.782 Y156.37 E172.31615
G1 X99.725 Y156.982 E172.36693
G1 X98.583 Y157.347 E172.41678
G1 X45.217 Y157.344 E174.63548
G1 X44.073 Y157.098 E174.68413
G1 X42.99 Y156.473 E174.73611
G1 X42.201 Y155.752 E174.78055
G1 X41.576 Y154.677 E174.83225
G1 X41.22 Y153.554 E174.88123
G1 X41.224 Y56.656 E178.90978
G1 X41.48 Y55.49 E178.95941
G1 X42.099 Y54.423 E179.01069
G1 X42.821 Y53.628 E179.05534
G0 F9000 X43.137 Y54.023
G1 F1800 X44.08 Y53.477 E179.10064
G1 X45.094 Y53.153 E179.1449
G1 X98.332 Y53.157 E181.35828
G1 X99.356 Y53.379 E181.40184
G1 X100.314 Y53.936 E181.44791
G1 X101.007 Y54.567 E181.48688
G1 X101.563 Y55.524 E181.53289
G1 X101.88 Y56.524 E181.57651
G1 X101.876 Y153.299 E185.59995
G1 X101.654 Y154.323 E185.64351
G1 X101.095 Y155.283 E185.68969
G1 X100.465 Y155.976 E185.72863
G1 X99.52 Y156.523 E185.77403
G1 X98.506 Y156.847 E185.81828
G1 X45.271 Y156.844 E188.03154
G1 X44.254 Y156.625 E188.07479
G1 X43.286 Y156.067 E188.12124
G1 X42.594 Y155.434 E188.16023
G1 X42.037 Y154.476 E188.2063
G1 X41.72 Y153.476 E188.24992
G1 X41.724 Y56.708 E192.27306
G1 X41.951 Y55.673 E192.31712
G1 X42.504 Y54.72 E192.36293
G1 X43.137 Y54.023 E192.40207
G0 F9000 X43.454 Y54.417
G1 F1800 X44.285 Y53.936 E192.44199
G1 X45.171 Y53.653 E192.48066
G1 X98.277 Y53.657 E194.68855
G1 X99.175 Y53.852 E194.72675
G1 X100.016 Y54.341 E194.7672
G1 X100.614 Y54.885 E194.80081
G1 X101.102 Y55.725 E194.8412
G1 X101.38 Y56.602 E194.87945
G1 X101.376 Y153.244 E198.89736
G1 X101.181 Y154.142 E198.93556
G1 X100.692 Y154.983 E198.97601
G1 X100.146 Y155.583 E199.00973
G1 X99.315 Y156.064 E199.04965
G1 X98.429 Y156.347 E199.08832
G1 X45.325 Y156.344 E201.29613
G1 X44.435 Y156.152 E201.33398
G1 X43.582 Y155.66 E201.37492
G1 X42.987 Y155.117 E201.40841
G1 X42.498 Y154.275 E201.44889
G1 X42.22 Y153.398 E201.48714
G1 X42.224 Y56.76 E205.50488
G1 X42.422 Y55.856 E205.54336
G1 X42.909 Y55.017 E205.58369
G1 X43.454 Y54.417 E205.61739
G0 F9000 X43.77 Y54.812
G1 F1800 X44.492 Y54.394 E205.65208
G1 X45.248 Y54.153 E205.68507
G1 X98.222 Y54.157 E207.88747
G1 X98.994 Y54.325 E207.92032
G1 X99.718 Y54.746 E207.95513
G1 X100.221 Y55.203 E207.98339
G1 X100.641 Y55.926 E208.01815
G1 X100.88 Y56.68 E208.05104
G1 X100.876 Y153.189 E212.06341
G1 X100.708 Y153.961 E212.09626
G1 X100.287 Y154.685 E212.13108
G1 X99.83 Y155.188 E212.15934
G1 X99.108 Y155.606 E212.19402
G1 X98.352 Y155.847 E212.22701
G1 X45.38 Y155.844 E214.42933
G1 X44.616 Y155.679 E214.46183
G1 X43.878 Y155.253 E214.49725
G1 X43.38 Y154.799 E214.52527
G1 X42.959 Y154.074 E214.56013
G1 X42.72 Y153.32 E214.59301
G1 X42.724 Y56.812 E218.60535
G1 X42.893 Y56.042 E218.63812
G1 X43.317 Y55.311 E218.67326
G1 X43.77 Y54.812 E218.70127
G0 F9000 X44.087 Y55.206
G1 F1800 X44.697 Y54.853 E218.73058
G1 X45.325 Y54.653 E218.75798
G1 X98.166 Y54.657 E220.95485
G1 X98.813 Y54.798 E220.98238
G1 X99.421 Y55.151 E221.01161
G1 X99.828 Y55.521 E221.03448
G1 X100.18 Y56.127 E221.06362
G1 X100.38 Y56.758 E221.09114
G1 X100.376 Y153.133 E225.09794
G1 X100.235 Y153.78 E225.12547
G1 X99.882 Y154.388 E225.1547
G1 X99.513 Y154.794 E225.17751
G1 X98.903 Y155.147 E225.20681
G1 X98.275 Y155.347 E225.23421
G1 X45.435 Y155.344 E227.43105
G1 X44.797 Y155.206 E227.45818
G1 X44.177 Y154.848 E227.48795
G1 X43.772 Y154.479 E227.51073
G1 X43.42 Y153.873 E227.53986
G1 X43.22 Y153.242 E227.56738
G1 X43.224 Y56.864 E231.57432
G1 X43.364 Y56.225 E231.60151
G1 X43.722 Y55.608 E231.63117
G1 X44.087 Y55.206 E231.65374
G0 F9000 X44.723 Y55.993
G1 F1800 X45.102 Y55.773 E231.67196
G1 X45.481 Y55.653 E231.68849
G1 X98.062 Y55.657 E233.87456
G1 X98.441 Y55.74 E233.89069
G1 X98.876 Y55.992 E233.91159
G1 X99.04 Y56.156 E233.92123
G1 X99.26 Y56.535 E233.93945
G1 X99.38 Y56.913 E233.95594
G1 X99.376 Y153.029 E237.95198
G1 X99.293 Y153.408 E237.96811
G1 X99.041 Y153.843 E237.98901
G1 X98.877 Y154.007 E237.99865
G1 X98.498 Y154.227 E238.01687
G1 X98.119 Y154.347 E238.0334
G1 X45.545 Y154.344 E240.21917
G1 X45.161 Y154.261 E240.2355
G1 X44.724 Y154.008 E240.2565
G1 X44.56 Y153.844 E240.26614
G1 X44.34 Y153.465 E240.28436
G1 X44.22 Y153.087 E240.30085
